;FLAVOR:Marlin
;TIME:49312
;Filament used: 56.2788m
;Layer height: 0.15
;MINX:8.2
;MINY:10.7
;MINZ:0.3
;MAXX:211.8
;MAXY:209.3
;MAXZ:25.25
;TARGET_MACHINE.NAME:Tyro
;Generated with Cura_SteamEngine 5.6.0
M140 S100
M105
M190 S100
M104 S250
M105
M109 S250
M82 ;absolute extrusion mode
G28;
M400
G29 V4 T;
M400
G1 X-8 Y100 Z0.8 F3000;
G92 E0;
G1 E30 F200;
G92 E0;
G1 E-3;
G1 Z1 F3000;
G1 X10 Y10 Z0.3 F3000;
G1 X0 Y30 Z1 F10000;
G1 X10 Y10 Z0.3 F10000;
G1 Z5 F3000
G92 E0
G92 E0
G1 F3900 E-3.5
;LAYER_COUNT:166
;LAYER:0
M107
G1 F600 Z0.5
G0 F12000 X10.028 Y16.49 Z0.5
;TYPE:SKIRT
G1 F600 Z0.3
G1 F3900 E0
G1 F3000 X10.736 Y16.09 E0.05274
G1 X11.753 Y15.63 E0.12513
G1 X12.315 Y15.386 E0.16487
G1 X14.76 Y14.236 E0.34011
G1 X17.202 Y13.005 E0.51748
G1 X19.64 Y11.685 E0.69729
G1 X20.481 Y11.218 E0.75968
G1 X20.945 Y11.005 E0.79279
G1 X21.667 Y10.788 E0.84169
G1 X22.396 Y10.706 E0.88927
G1 X31.852 Y10.7 E1.50256
G1 X32.598 Y10.71 E1.55095
G1 X33.396 Y10.743 E1.60275
G1 X36.176 Y10.822 E1.78312
G1 X38.831 Y10.822 E1.95532
G1 X41.582 Y10.744 E2.13381
G1 X42.704 Y10.702 E2.20663
G1 X51.852 Y10.7 E2.79995
G1 X52.598 Y10.71 E2.84834
G1 X53.396 Y10.743 E2.90014
G1 X56.176 Y10.822 E3.08051
G1 X58.831 Y10.822 E3.25271
G1 X61.583 Y10.744 E3.43127
G1 X62.704 Y10.702 E3.50402
G1 X71.852 Y10.7 E4.09734
G1 X72.598 Y10.71 E4.14573
G1 X73.396 Y10.743 E4.19753
G1 X76.176 Y10.822 E4.3779
G1 X78.831 Y10.822 E4.5501
G1 X81.583 Y10.744 E4.72866
G1 X82.704 Y10.702 E4.80141
G1 X91.852 Y10.7 E5.39473
G1 X92.598 Y10.71 E5.44311
G1 X93.396 Y10.743 E5.49491
G1 X96.176 Y10.822 E5.67529
G1 X98.831 Y10.822 E5.84749
G1 X101.583 Y10.744 E6.02605
G1 X102.704 Y10.702 E6.0988
G1 X111.852 Y10.7 E6.69212
G1 X112.598 Y10.71 E6.7405
G1 X113.396 Y10.743 E6.7923
G1 X116.176 Y10.822 E6.97268
G1 X118.831 Y10.822 E7.14488
G1 X121.583 Y10.744 E7.32343
G1 X122.704 Y10.702 E7.39619
G1 X131.852 Y10.7 E7.98951
G1 X132.598 Y10.71 E8.03789
G1 X133.396 Y10.743 E8.08969
G1 X136.176 Y10.822 E8.27007
G1 X138.831 Y10.822 E8.44227
G1 X141.583 Y10.744 E8.62082
G1 X142.704 Y10.702 E8.69358
G1 X151.852 Y10.7 E9.28689
G1 X152.598 Y10.71 E9.33528
G1 X153.396 Y10.743 E9.38708
G1 X156.176 Y10.822 E9.56746
G1 X158.831 Y10.822 E9.73965
G1 X161.583 Y10.744 E9.91821
G1 X162.704 Y10.702 E9.99097
G1 X171.852 Y10.7 E10.58428
G1 X172.598 Y10.71 E10.63267
G1 X173.396 Y10.743 E10.68447
G1 X176.176 Y10.822 E10.86485
G1 X178.831 Y10.822 E11.03704
G1 X181.583 Y10.744 E11.2156
G1 X182.704 Y10.702 E11.28836
G1 X191.861 Y10.7 E11.88226
G1 X192.606 Y10.713 E11.93058
G1 X193.281 Y10.782 E11.97459
G1 X193.97 Y10.974 E12.02098
G1 X194.499 Y11.208 E12.0585
G1 X196.724 Y12.438 E12.22338
G1 X199.088 Y13.67 E12.39628
G1 X201.554 Y14.869 E12.57412
G1 X204.333 Y16.123 E12.77186
G1 X204.869 Y16.417 E12.81151
G1 X205.568 Y17.003 E12.87067
G1 X206.548 Y18.028 E12.96264
G1 X208.462 Y19.975 E13.13972
G1 X210.498 Y21.934 E13.32297
G1 X210.967 Y22.479 E13.3696
G1 X211.315 Y23.045 E13.41269
G1 X211.548 Y23.59 E13.45113
G1 X211.732 Y24.32 E13.49996
G1 X211.8 Y25.02 E13.54558
G1 X211.8 Y34.333 E14.14959
G1 X211.79 Y35.086 E14.19843
G1 X211.757 Y35.896 E14.25101
G1 X211.678 Y38.676 E14.43139
G1 X211.678 Y41.362 E14.60559
G1 X211.756 Y44.079 E14.78188
G1 X211.798 Y45.204 E14.8549
G1 X211.8 Y54.333 E15.44698
G1 X211.79 Y55.086 E15.49582
G1 X211.757 Y55.896 E15.5484
G1 X211.678 Y58.676 E15.72878
G1 X211.678 Y61.362 E15.90298
G1 X211.756 Y64.079 E16.07927
G1 X211.798 Y65.204 E16.15229
G1 X211.8 Y74.333 E16.74437
G1 X211.79 Y75.086 E16.79321
G1 X211.757 Y75.896 E16.84579
G1 X211.678 Y78.676 E17.02617
G1 X211.678 Y81.362 E17.20037
G1 X211.756 Y84.079 E17.37666
G1 X211.798 Y85.204 E17.44968
G1 X211.8 Y94.333 E18.04176
G1 X211.79 Y95.086 E18.0906
G1 X211.757 Y95.896 E18.14318
G1 X211.678 Y98.676 E18.32355
G1 X211.678 Y101.362 E18.49776
G1 X211.756 Y104.079 E18.67405
G1 X211.798 Y105.204 E18.74707
G1 X211.8 Y114.333 E19.33915
G1 X211.79 Y115.086 E19.38799
G1 X211.757 Y115.896 E19.44057
G1 X211.678 Y118.676 E19.62094
G1 X211.678 Y121.362 E19.79515
G1 X211.756 Y124.079 E19.97144
G1 X211.798 Y125.204 E20.04446
G1 X211.8 Y134.333 E20.63654
G1 X211.79 Y135.086 E20.68538
G1 X211.757 Y135.896 E20.73796
G1 X211.678 Y138.676 E20.91833
G1 X211.678 Y141.362 E21.09254
G1 X211.756 Y144.079 E21.26883
G1 X211.798 Y145.204 E21.34185
G1 X211.8 Y154.333 E21.93393
G1 X211.79 Y155.086 E21.98277
G1 X211.757 Y155.896 E22.03535
G1 X211.678 Y158.676 E22.21572
G1 X211.678 Y161.362 E22.38993
G1 X211.756 Y164.079 E22.56622
G1 X211.798 Y165.204 E22.63923
G1 X211.8 Y174.333 E23.23132
G1 X211.79 Y175.086 E23.28016
G1 X211.757 Y175.896 E23.33274
G1 X211.678 Y178.676 E23.51311
G1 X211.678 Y181.362 E23.68732
G1 X211.756 Y184.079 E23.86361
G1 X211.798 Y185.204 E23.93662
G1 X211.8 Y194.354 E24.53007
G1 X211.786 Y195.14 E24.58105
G1 X211.724 Y195.727 E24.61934
G1 X211.548 Y196.422 E24.66584
G1 X211.255 Y197.07 E24.71196
G1 X210.935 Y197.565 E24.75019
G1 X210.456 Y198.111 E24.7973
G1 X209.445 Y199.074 E24.88785
G1 X207.508 Y200.979 E25.06406
G1 X205.595 Y202.97 E25.24313
G1 X205.079 Y203.434 E25.28814
G1 X204.316 Y203.884 E25.34559
G1 X202.685 Y204.614 E25.46149
G1 X200.24 Y205.764 E25.63673
G1 X197.798 Y206.995 E25.81409
G1 X195.36 Y208.315 E25.99391
G1 X194.519 Y208.782 E26.0563
G1 X194.055 Y208.995 E26.08941
G1 X193.333 Y209.212 E26.1383
G1 X192.604 Y209.294 E26.18588
G1 X183.148 Y209.3 E26.79917
G1 X182.403 Y209.29 E26.8475
G1 X181.604 Y209.257 E26.89936
G1 X178.824 Y209.178 E27.07974
G1 X176.17 Y209.178 E27.25187
G1 X173.417 Y209.256 E27.43049
G1 X172.296 Y209.298 E27.50325
G1 X163.148 Y209.3 E28.09656
G1 X162.403 Y209.29 E28.14489
G1 X161.604 Y209.257 E28.19675
G1 X158.824 Y209.178 E28.37713
G1 X156.17 Y209.178 E28.54926
G1 X153.417 Y209.256 E28.72788
G1 X152.296 Y209.298 E28.80064
G1 X143.148 Y209.3 E29.39395
G1 X142.403 Y209.29 E29.44228
G1 X141.604 Y209.257 E29.49414
G1 X138.824 Y209.178 E29.67452
G1 X136.17 Y209.178 E29.84665
G1 X133.417 Y209.256 E30.02527
G1 X132.296 Y209.298 E30.09803
G1 X123.14 Y209.3 E30.69186
G1 X122.277 Y209.285 E30.74784
G1 X119.303 Y209.031 E30.94143
G1 X116.616 Y208.881 E31.11597
G1 X113.865 Y208.803 E31.29447
G1 X111.212 Y208.803 E31.46653
G1 X108.463 Y208.881 E31.6449
G1 X105.752 Y209.035 E31.82101
G1 X102.809 Y209.279 E32.01254
G1 X102.262 Y209.299 E32.04804
G1 X93.148 Y209.3 E32.63915
G1 X92.403 Y209.29 E32.68747
G1 X91.604 Y209.257 E32.73934
G1 X88.824 Y209.178 E32.91971
G1 X86.17 Y209.178 E33.09184
G1 X83.417 Y209.256 E33.27047
G1 X82.296 Y209.298 E33.34322
G1 X73.148 Y209.3 E33.93654
G1 X72.403 Y209.29 E33.98486
G1 X71.604 Y209.257 E34.03672
G1 X68.824 Y209.178 E34.2171
G1 X66.17 Y209.178 E34.38923
G1 X63.417 Y209.256 E34.56786
G1 X62.296 Y209.298 E34.64061
G1 X53.148 Y209.3 E35.23393
G1 X52.403 Y209.29 E35.28225
G1 X51.604 Y209.257 E35.33411
G1 X48.824 Y209.178 E35.51449
G1 X46.17 Y209.178 E35.68662
G1 X43.417 Y209.256 E35.86525
G1 X42.296 Y209.298 E35.938
G1 X33.148 Y209.3 E36.53132
G1 X32.403 Y209.29 E36.57964
G1 X31.604 Y209.257 E36.6315
G1 X28.824 Y209.178 E36.81188
G1 X26.17 Y209.178 E36.98401
G1 X23.417 Y209.256 E37.16263
G1 X22.296 Y209.298 E37.23539
G1 X13.15 Y209.3 E37.82857
G1 X12.371 Y209.287 E37.87911
G1 X11.863 Y209.24 E37.91219
G1 X11.215 Y209.088 E37.95536
G1 X10.591 Y208.836 E37.99901
G1 X10.014 Y208.489 E38.04268
G1 X9.467 Y208.032 E38.08891
G1 X8.957 Y207.41 E38.14107
G1 X8.621 Y206.824 E38.18489
G1 X8.384 Y206.197 E38.22836
G1 X8.258 Y205.628 E38.26616
G1 X8.201 Y204.975 E38.30867
G1 X8.2 Y185.648 E39.56217
G1 X8.21 Y184.902 E39.61055
G1 X8.244 Y184.077 E39.66411
G1 X8.322 Y181.324 E39.84273
G1 X8.322 Y178.639 E40.01687
G1 X8.243 Y175.876 E40.19615
G1 X8.202 Y174.797 E40.26618
G1 X8.2 Y165.648 E40.85956
G1 X8.21 Y164.902 E40.90794
G1 X8.244 Y164.077 E40.9615
G1 X8.322 Y161.324 E41.14012
G1 X8.322 Y158.639 E41.31426
G1 X8.243 Y155.876 E41.49354
G1 X8.202 Y154.797 E41.56357
G1 X8.2 Y145.648 E42.15695
G1 X8.21 Y144.902 E42.20533
G1 X8.244 Y144.077 E42.25889
G1 X8.322 Y141.324 E42.43751
G1 X8.322 Y138.639 E42.61165
G1 X8.243 Y135.876 E42.79093
G1 X8.202 Y134.797 E42.86096
G1 X8.2 Y125.648 E43.45434
G1 X8.21 Y124.902 E43.50272
G1 X8.244 Y124.077 E43.55628
G1 X8.322 Y121.324 E43.7349
G1 X8.322 Y118.639 E43.90904
G1 X8.243 Y115.876 E44.08832
G1 X8.202 Y114.797 E44.15835
G1 X8.2 Y105.648 E44.75173
G1 X8.21 Y104.902 E44.80012
G1 X8.244 Y104.077 E44.85367
G1 X8.322 Y101.324 E45.03229
G1 X8.322 Y98.639 E45.20643
G1 X8.243 Y95.876 E45.38571
G1 X8.202 Y94.797 E45.45574
G1 X8.2 Y85.648 E46.04912
G1 X8.21 Y84.902 E46.09751
G1 X8.244 Y84.077 E46.15106
G1 X8.322 Y81.324 E46.32968
G1 X8.322 Y78.639 E46.50382
G1 X8.243 Y75.876 E46.6831
G1 X8.202 Y74.797 E46.75313
G1 X8.2 Y65.648 E47.34651
G1 X8.21 Y64.902 E47.3949
G1 X8.244 Y64.077 E47.44845
G1 X8.322 Y61.324 E47.62707
G1 X8.322 Y58.639 E47.80121
G1 X8.243 Y55.876 E47.98049
G1 X8.202 Y54.797 E48.05052
G1 X8.2 Y45.648 E48.6439
G1 X8.21 Y44.902 E48.69229
G1 X8.244 Y44.077 E48.74584
G1 X8.322 Y41.324 E48.92446
G1 X8.322 Y38.639 E49.0986
G1 X8.243 Y35.876 E49.27788
G1 X8.202 Y34.797 E49.34791
G1 X8.2 Y20.608 E50.26817
G1 X8.212 Y19.9 E50.3141
G1 X8.291 Y19.187 E50.36062
G1 X8.443 Y18.616 E50.39894
G1 X8.67 Y18.075 E50.437
G1 X9.018 Y17.504 E50.48037
G1 X9.449 Y16.992 E50.52377
G1 X10.028 Y16.49 E50.57347
G0 F12000 X10.329 Y16.917
G1 F3000 X10.95 Y16.564 E50.6198
G1 X11.96 Y16.107 E50.6917
G1 X12.536 Y15.857 E50.73243
G1 X14.981 Y14.707 E50.90767
G1 X17.45 Y13.462 E51.08701
G1 X19.888 Y12.142 E51.26682
G1 X20.698 Y11.691 E51.32695
G1 X21.162 Y11.478 E51.36006
G1 X21.77 Y11.3 E51.40115
G1 X22.454 Y11.223 E51.44579
G1 X31.845 Y11.22 E52.05486
G1 X32.577 Y11.23 E52.10234
G1 X33.375 Y11.263 E52.15414
G1 X36.161 Y11.342 E52.33491
G1 X38.846 Y11.342 E52.50905
G1 X41.602 Y11.264 E52.68787
G1 X42.704 Y11.222 E52.75939
G1 X51.845 Y11.22 E53.35225
G1 X52.577 Y11.23 E53.39973
G1 X53.375 Y11.263 E53.45153
G1 X56.161 Y11.342 E53.6323
G1 X58.846 Y11.342 E53.80644
G1 X61.603 Y11.264 E53.98532
G1 X62.704 Y11.222 E54.05678
G1 X71.845 Y11.22 E54.64964
G1 X72.577 Y11.23 E54.69712
G1 X73.375 Y11.263 E54.74892
G1 X76.161 Y11.342 E54.92969
G1 X78.846 Y11.342 E55.10383
G1 X81.603 Y11.264 E55.28271
G1 X82.704 Y11.222 E55.35417
G1 X91.845 Y11.22 E55.94703
G1 X92.577 Y11.23 E55.99451
G1 X93.375 Y11.263 E56.04631
G1 X96.161 Y11.342 E56.22708
G1 X98.846 Y11.342 E56.40122
G1 X101.603 Y11.264 E56.5801
G1 X102.704 Y11.222 E56.65156
G1 X111.845 Y11.22 E57.24442
G1 X112.577 Y11.23 E57.2919
G1 X113.375 Y11.263 E57.3437
G1 X116.161 Y11.342 E57.52447
G1 X118.846 Y11.342 E57.69861
G1 X121.603 Y11.264 E57.87749
G1 X122.704 Y11.222 E57.94895
G1 X131.845 Y11.22 E58.54181
G1 X132.577 Y11.23 E58.58929
G1 X133.375 Y11.263 E58.64109
G1 X136.161 Y11.342 E58.82186
G1 X138.846 Y11.342 E58.996
G1 X141.603 Y11.264 E59.17488
G1 X142.704 Y11.222 E59.24634
G1 X151.845 Y11.22 E59.8392
G1 X152.577 Y11.23 E59.88668
G1 X153.375 Y11.263 E59.93849
G1 X156.161 Y11.342 E60.11925
G1 X158.846 Y11.342 E60.29339
G1 X161.603 Y11.264 E60.47227
G1 X162.704 Y11.222 E60.54373
G1 X171.845 Y11.22 E61.13659
G1 X172.577 Y11.23 E61.18407
G1 X173.375 Y11.263 E61.23588
G1 X176.161 Y11.342 E61.41664
G1 X178.846 Y11.342 E61.59078
G1 X181.603 Y11.264 E61.76966
G1 X182.704 Y11.222 E61.84112
G1 X191.852 Y11.22 E62.43444
G1 X192.597 Y11.233 E62.48276
G1 X193.185 Y11.295 E62.52111
G1 X193.76 Y11.45 E62.55974
G1 X194.289 Y11.684 E62.59725
G1 X196.472 Y12.893 E62.7591
G1 X198.861 Y14.138 E62.93382
G1 X201.331 Y15.339 E63.11195
G1 X204.083 Y16.579 E63.30772
G1 X204.573 Y16.848 E63.34398
G1 X205.234 Y17.402 E63.39991
G1 X206.177 Y18.393 E63.48863
G1 X208.091 Y20.34 E63.66571
G1 X210.138 Y22.309 E63.84992
G1 X210.526 Y22.755 E63.88826
G1 X210.839 Y23.255 E63.92652
G1 X211.045 Y23.722 E63.95963
G1 X211.215 Y24.372 E64.0032
G1 X211.28 Y25.02 E64.04544
G1 X211.28 Y34.326 E64.649
G1 X211.27 Y35.065 E64.69694
G1 X211.237 Y35.875 E64.74951
G1 X211.158 Y38.661 E64.93028
G1 X211.158 Y41.362 E65.10546
G1 X211.236 Y44.099 E65.28304
G1 X211.278 Y45.204 E65.35476
G1 X211.28 Y54.326 E65.94639
G1 X211.27 Y55.065 E65.99433
G1 X211.237 Y55.875 E66.0469
G1 X211.158 Y58.661 E66.22767
G1 X211.158 Y61.362 E66.40285
G1 X211.236 Y64.099 E66.58043
G1 X211.278 Y65.204 E66.65215
G1 X211.28 Y74.326 E67.24378
G1 X211.27 Y75.065 E67.29172
G1 X211.237 Y75.875 E67.34429
G1 X211.158 Y78.661 E67.52506
G1 X211.158 Y81.362 E67.70024
G1 X211.236 Y84.099 E67.87782
G1 X211.278 Y85.204 E67.94954
G1 X211.28 Y94.326 E68.54117
G1 X211.27 Y95.065 E68.5891
G1 X211.237 Y95.875 E68.64168
G1 X211.158 Y98.661 E68.82245
G1 X211.158 Y101.362 E68.99763
G1 X211.236 Y104.099 E69.17521
G1 X211.278 Y105.204 E69.24693
G1 X211.28 Y114.326 E69.83856
G1 X211.27 Y115.065 E69.88649
G1 X211.237 Y115.875 E69.93907
G1 X211.158 Y118.661 E70.11984
G1 X211.158 Y121.362 E70.29502
G1 X211.236 Y124.099 E70.4726
G1 X211.278 Y125.204 E70.54432
G1 X211.28 Y134.326 E71.13595
G1 X211.27 Y135.065 E71.18388
G1 X211.237 Y135.875 E71.23646
G1 X211.158 Y138.661 E71.41723
G1 X211.158 Y141.362 E71.59241
G1 X211.236 Y144.099 E71.76999
G1 X211.278 Y145.204 E71.84171
G1 X211.28 Y154.326 E72.43334
G1 X211.27 Y155.065 E72.48127
G1 X211.237 Y155.875 E72.53385
G1 X211.158 Y158.661 E72.71462
G1 X211.158 Y161.362 E72.8898
G1 X211.236 Y164.099 E73.06738
G1 X211.278 Y165.204 E73.1391
G1 X211.28 Y174.326 E73.73073
G1 X211.27 Y175.065 E73.77866
G1 X211.237 Y175.875 E73.83124
G1 X211.158 Y178.661 E74.01201
G1 X211.158 Y181.362 E74.18719
G1 X211.236 Y184.099 E74.36477
G1 X211.278 Y185.204 E74.43649
G1 X211.28 Y194.346 E75.02942
G1 X211.268 Y195.091 E75.07774
G1 X211.22 Y195.599 E75.11084
G1 X211.055 Y196.251 E75.15446
G1 X210.815 Y196.792 E75.19284
G1 X210.543 Y197.223 E75.2259
G1 X210.097 Y197.734 E75.26989
G1 X209.086 Y198.697 E75.36044
G1 X207.143 Y200.608 E75.5372
G1 X205.22 Y202.61 E75.71724
G1 X204.771 Y203.012 E75.75632
G1 X204.052 Y203.436 E75.81046
G1 X202.464 Y204.143 E75.9232
G1 X200.019 Y205.293 E76.09844
G1 X197.55 Y206.538 E76.27778
G1 X195.112 Y207.858 E76.45759
G1 X194.302 Y208.309 E76.51772
G1 X193.838 Y208.522 E76.55083
G1 X193.23 Y208.7 E76.59192
G1 X192.546 Y208.777 E76.63657
G1 X183.155 Y208.78 E77.24564
G1 X182.424 Y208.77 E77.29305
G1 X181.625 Y208.737 E77.34492
G1 X178.839 Y208.658 E77.52568
G1 X176.155 Y208.658 E77.69976
G1 X173.397 Y208.736 E77.87871
G1 X172.296 Y208.778 E77.95017
G1 X163.155 Y208.78 E78.54303
G1 X162.424 Y208.77 E78.59044
G1 X161.625 Y208.737 E78.64231
G1 X158.839 Y208.658 E78.82307
G1 X156.155 Y208.658 E78.99715
G1 X153.397 Y208.736 E79.1761
G1 X152.296 Y208.778 E79.24756
G1 X143.155 Y208.78 E79.84042
G1 X142.424 Y208.77 E79.88783
G1 X141.625 Y208.737 E79.9397
G1 X138.839 Y208.658 E80.12046
G1 X136.155 Y208.658 E80.29454
G1 X133.397 Y208.736 E80.47349
G1 X132.296 Y208.778 E80.54495
G1 X123.149 Y208.78 E81.1382
G1 X122.286 Y208.765 E81.19418
G1 X119.342 Y208.513 E81.38582
G1 X116.631 Y208.361 E81.56192
G1 X113.88 Y208.283 E81.74042
G1 X111.197 Y208.283 E81.91443
G1 X108.448 Y208.361 E82.09279
G1 X105.717 Y208.516 E82.2702
G1 X102.789 Y208.759 E82.46076
G1 X102.262 Y208.779 E82.49496
G1 X93.155 Y208.78 E83.08562
G1 X92.424 Y208.77 E83.13303
G1 X91.625 Y208.737 E83.1849
G1 X88.839 Y208.658 E83.36566
G1 X86.155 Y208.658 E83.53974
G1 X83.397 Y208.736 E83.71869
G1 X82.296 Y208.778 E83.79015
G1 X73.155 Y208.78 E84.38301
G1 X72.424 Y208.77 E84.43042
G1 X71.625 Y208.737 E84.48229
G1 X68.839 Y208.658 E84.66305
G1 X66.155 Y208.658 E84.83713
G1 X63.397 Y208.736 E85.01608
G1 X62.296 Y208.778 E85.08754
G1 X53.155 Y208.78 E85.6804
G1 X52.424 Y208.77 E85.72781
G1 X51.625 Y208.737 E85.77968
G1 X48.839 Y208.658 E85.96044
G1 X46.155 Y208.658 E86.13452
G1 X43.397 Y208.736 E86.31347
G1 X42.296 Y208.778 E86.38493
G1 X33.155 Y208.78 E86.97779
G1 X32.424 Y208.77 E87.0252
G1 X31.625 Y208.737 E87.07707
G1 X28.839 Y208.658 E87.25783
G1 X26.155 Y208.658 E87.43191
G1 X23.397 Y208.736 E87.61086
G1 X22.296 Y208.778 E87.68232
G1 X13.158 Y208.78 E88.27498
G1 X12.419 Y208.769 E88.32292
G1 X11.911 Y208.722 E88.356
G1 X11.337 Y208.583 E88.39431
G1 X10.79 Y208.356 E88.43272
G1 X10.286 Y208.046 E88.4711
G1 X9.837 Y207.663 E88.50937
