;FLAVOR:Marlin
;TIME:49221
;Filament used: 56.117m
;Layer height: 0.15
;MINX:8.2
;MINY:8.211
;MINZ:0.3
;MAXX:211.8
;MAXY:207.289
;MAXZ:25.25
;TARGET_MACHINE.NAME:Tyro
;Generated with Cura_SteamEngine 5.6.0
M140 S100
M105
M190 S100
M104 S250
M105
M109 S250
M82 ;absolute extrusion mode
G28;
M400
G29 V4 T;
M400
G1 X-8 Y100 Z0.8 F3000;
G92 E0;
G1 E30 F200;
G92 E0;
G1 E-3;
G1 Z1 F3000;
G1 X10 Y10 Z0.3 F3000;
G1 X0 Y30 Z1 F10000;
G1 X10 Y10 Z0.3 F10000;
G1 Z5 F3000
G92 E0
G92 E0
G1 F3900 E-3.5
;LAYER_COUNT:166
;LAYER:0
M107
G1 F600 Z0.5
G0 F12000 X9.569 Y9.386 Z0.5
;TYPE:SKIRT
G1 F600 Z0.3
G1 F3900 E0
G1 F3000 X10.093 Y8.966 E0.04355
G1 X10.679 Y8.631 E0.08733
G1 X11.306 Y8.394 E0.13081
G1 X11.873 Y8.269 E0.16846
G1 X12.52 Y8.212 E0.21059
G1 X21.852 Y8.211 E0.81584
G1 X22.598 Y8.221 E0.86422
G1 X23.396 Y8.254 E0.91603
G1 X26.176 Y8.333 E1.0964
G1 X28.831 Y8.333 E1.2686
G1 X31.582 Y8.255 E1.44709
G1 X32.704 Y8.213 E1.51991
G1 X41.852 Y8.211 E2.11323
G1 X42.598 Y8.221 E2.16161
G1 X43.396 Y8.254 E2.21341
G1 X46.176 Y8.333 E2.39379
G1 X48.831 Y8.333 E2.56599
G1 X51.583 Y8.255 E2.74455
G1 X52.704 Y8.213 E2.8173
G1 X61.852 Y8.211 E3.41062
G1 X62.598 Y8.221 E3.459
G1 X63.396 Y8.254 E3.5108
G1 X66.176 Y8.333 E3.69118
G1 X68.831 Y8.333 E3.86338
G1 X71.583 Y8.255 E4.04193
G1 X72.704 Y8.213 E4.11469
G1 X81.852 Y8.211 E4.70801
G1 X82.598 Y8.221 E4.75639
G1 X83.396 Y8.254 E4.80819
G1 X86.176 Y8.333 E4.98857
G1 X88.831 Y8.333 E5.16077
G1 X91.583 Y8.255 E5.33932
G1 X92.704 Y8.213 E5.41208
G1 X101.86 Y8.211 E6.00591
G1 X102.722 Y8.226 E6.06183
G1 X105.697 Y8.48 E6.25548
G1 X108.384 Y8.63 E6.43002
G1 X111.135 Y8.708 E6.60852
G1 X113.788 Y8.708 E6.78058
G1 X116.537 Y8.63 E6.95895
G1 X119.248 Y8.476 E7.13506
G1 X122.191 Y8.232 E7.32659
G1 X122.738 Y8.212 E7.36209
G1 X131.852 Y8.211 E7.9532
G1 X132.597 Y8.221 E8.00152
G1 X133.396 Y8.254 E8.05339
G1 X136.176 Y8.333 E8.23376
G1 X138.83 Y8.333 E8.40589
G1 X141.583 Y8.255 E8.58452
G1 X142.704 Y8.213 E8.65727
G1 X151.852 Y8.211 E9.25059
G1 X152.597 Y8.221 E9.29891
G1 X153.396 Y8.254 E9.35078
G1 X156.176 Y8.333 E9.53115
G1 X158.83 Y8.333 E9.70328
G1 X161.583 Y8.255 E9.88191
G1 X162.704 Y8.213 E9.95466
G1 X171.852 Y8.211 E10.54798
G1 X172.597 Y8.221 E10.5963
G1 X173.396 Y8.254 E10.64817
G1 X176.176 Y8.333 E10.82854
G1 X178.83 Y8.333 E11.00067
G1 X181.583 Y8.255 E11.1793
G1 X182.704 Y8.213 E11.25205
G1 X191.861 Y8.211 E11.84595
G1 X192.606 Y8.224 E11.89428
G1 X193.281 Y8.293 E11.93828
G1 X193.97 Y8.485 E11.98467
G1 X194.499 Y8.719 E12.02219
G1 X196.722 Y9.948 E12.18693
G1 X199.088 Y11.181 E12.35997
G1 X201.566 Y12.386 E12.53868
G1 X204.299 Y13.619 E12.73314
G1 X204.874 Y13.932 E12.7756
G1 X205.568 Y14.516 E12.83443
G1 X206.548 Y15.539 E12.92631
G1 X208.462 Y17.486 E13.10339
G1 X210.498 Y19.445 E13.28664
G1 X210.967 Y19.99 E13.33327
G1 X211.315 Y20.556 E13.37636
G1 X211.548 Y21.101 E13.4148
G1 X211.732 Y21.831 E13.46363
G1 X211.8 Y22.531 E13.50925
G1 X211.8 Y31.844 E14.11326
G1 X211.79 Y32.597 E14.1621
G1 X211.757 Y33.407 E14.21468
G1 X211.678 Y36.187 E14.39506
G1 X211.678 Y38.873 E14.56926
G1 X211.756 Y41.59 E14.74555
G1 X211.798 Y42.715 E14.81857
G1 X211.8 Y51.844 E15.41065
G1 X211.79 Y52.597 E15.45949
G1 X211.757 Y53.407 E15.51207
G1 X211.678 Y56.187 E15.69245
G1 X211.678 Y58.873 E15.86665
G1 X211.756 Y61.59 E16.04294
G1 X211.798 Y62.715 E16.11596
G1 X211.8 Y71.844 E16.70804
G1 X211.79 Y72.597 E16.75688
G1 X211.757 Y73.407 E16.80946
G1 X211.678 Y76.187 E16.98984
G1 X211.678 Y78.873 E17.16404
G1 X211.756 Y81.59 E17.34033
G1 X211.798 Y82.715 E17.41335
G1 X211.8 Y91.864 E18.00673
G1 X211.79 Y92.598 E18.05434
G1 X211.757 Y93.407 E18.10685
G1 X211.678 Y96.187 E18.28722
G1 X211.678 Y98.873 E18.46143
G1 X211.756 Y101.59 E18.63772
G1 X211.798 Y102.716 E18.7108
G1 X211.8 Y111.865 E19.30418
G1 X211.79 Y112.599 E19.35179
G1 X211.757 Y113.408 E19.4043
G1 X211.678 Y116.188 E19.58468
G1 X211.678 Y118.874 E19.75889
G1 X211.756 Y121.591 E19.93518
G1 X211.798 Y122.716 E20.00819
G1 X211.8 Y131.865 E20.60157
G1 X211.79 Y132.599 E20.64918
G1 X211.757 Y133.408 E20.70169
G1 X211.678 Y136.188 E20.88207
G1 X211.678 Y138.874 E21.05628
G1 X211.756 Y141.591 E21.23257
G1 X211.798 Y142.716 E21.30558
G1 X211.8 Y151.845 E21.89766
G1 X211.79 Y152.598 E21.9465
G1 X211.757 Y153.408 E21.99908
G1 X211.678 Y156.188 E22.17946
G1 X211.678 Y158.874 E22.35366
G1 X211.756 Y161.591 E22.52995
G1 X211.798 Y162.716 E22.60297
G1 X211.8 Y171.845 E23.19505
G1 X211.79 Y172.598 E23.24389
G1 X211.757 Y173.408 E23.29647
G1 X211.678 Y176.188 E23.47685
G1 X211.678 Y178.874 E23.65105
G1 X211.756 Y181.591 E23.82734
G1 X211.798 Y182.716 E23.90036
G1 X211.8 Y191.866 E24.4938
G1 X211.786 Y192.652 E24.54479
G1 X211.724 Y193.239 E24.58307
G1 X211.548 Y193.934 E24.62957
G1 X211.255 Y194.582 E24.67569
G1 X210.935 Y195.077 E24.71392
G1 X210.456 Y195.623 E24.76103
G1 X209.445 Y196.586 E24.85159
G1 X207.508 Y198.491 E25.02779
G1 X205.537 Y200.538 E25.21209
G1 X205.078 Y200.946 E25.25192
G1 X204.316 Y201.396 E25.30932
G1 X202.685 Y202.126 E25.42521
G1 X200.24 Y203.276 E25.60046
G1 X197.798 Y204.507 E25.77782
G1 X195.36 Y205.827 E25.95763
G1 X194.519 Y206.294 E26.02002
G1 X194.055 Y206.507 E26.05314
G1 X193.333 Y206.724 E26.10203
G1 X192.604 Y206.806 E26.14961
G1 X183.148 Y206.812 E26.7629
G1 X182.403 Y206.802 E26.81123
G1 X181.604 Y206.769 E26.86309
G1 X178.824 Y206.69 E27.04347
G1 X176.17 Y206.69 E27.2156
G1 X173.417 Y206.768 E27.39422
G1 X172.296 Y206.81 E27.46698
G1 X163.148 Y206.812 E28.06029
G1 X162.403 Y206.802 E28.10861
G1 X161.604 Y206.769 E28.16048
G1 X158.824 Y206.69 E28.34086
G1 X156.17 Y206.69 E28.51299
G1 X153.417 Y206.768 E28.69161
G1 X152.296 Y206.81 E28.76437
G1 X143.148 Y206.812 E29.35768
G1 X142.403 Y206.802 E29.406
G1 X141.604 Y206.769 E29.45787
G1 X138.824 Y206.69 E29.63824
G1 X136.17 Y206.69 E29.81038
G1 X133.417 Y206.768 E29.989
G1 X132.296 Y206.81 E30.06176
G1 X123.148 Y206.812 E30.65507
G1 X122.403 Y206.802 E30.70339
G1 X121.604 Y206.769 E30.75526
G1 X118.824 Y206.69 E30.93563
G1 X116.17 Y206.69 E31.10777
G1 X113.417 Y206.768 E31.28639
G1 X112.296 Y206.81 E31.35915
G1 X103.148 Y206.812 E31.95246
G1 X102.403 Y206.802 E32.00078
G1 X101.604 Y206.769 E32.05265
G1 X98.824 Y206.69 E32.23302
G1 X96.17 Y206.69 E32.40515
G1 X93.417 Y206.768 E32.58378
G1 X92.296 Y206.81 E32.65653
G1 X83.148 Y206.812 E33.24985
G1 X82.403 Y206.802 E33.29817
G1 X81.604 Y206.769 E33.35004
G1 X78.824 Y206.69 E33.53041
G1 X76.17 Y206.69 E33.70254
G1 X73.417 Y206.768 E33.88117
G1 X72.296 Y206.81 E33.95392
G1 X63.148 Y206.812 E34.54724
G1 X62.403 Y206.802 E34.59556
G1 X61.604 Y206.769 E34.64743
G1 X58.824 Y206.69 E34.8278
G1 X56.17 Y206.69 E34.99993
G1 X53.417 Y206.768 E35.17856
G1 X52.296 Y206.81 E35.25131
G1 X43.148 Y206.812 E35.84463
G1 X42.403 Y206.802 E35.89295
G1 X41.604 Y206.769 E35.94482
G1 X38.824 Y206.69 E36.12519
G1 X36.17 Y206.69 E36.29732
G1 X33.417 Y206.768 E36.47595
G1 X32.296 Y206.81 E36.5487
G1 X23.146 Y206.812 E37.14215
G1 X22.401 Y206.8 E37.19047
G1 X21.692 Y206.723 E37.23673
G1 X21.113 Y206.575 E37.27548
G1 X20.455 Y206.282 E37.3222
G1 X18.287 Y205.078 E37.48304
G1 X15.9 Y203.835 E37.65759
G1 X13.455 Y202.647 E37.83389
G1 X10.708 Y201.409 E38.02931
G1 X10.089 Y201.058 E38.07546
G1 X9.685 Y200.746 E38.10857
G1 X9.217 Y200.266 E38.15205
G1 X8.828 Y199.721 E38.19548
G1 X8.527 Y199.119 E38.23913
G1 X8.298 Y198.394 E38.28844
G1 X8.203 Y197.565 E38.34256
G1 X8.2 Y183.16 E39.27683
G1 X8.21 Y182.415 E39.32515
G1 X8.244 Y181.589 E39.37877
G1 X8.322 Y178.836 E39.55739
G1 X8.322 Y176.15 E39.7316
G1 X8.243 Y173.389 E39.91074
G1 X8.202 Y172.308 E39.9809
G1 X8.2 Y163.16 E40.57422
G1 X8.21 Y162.415 E40.62254
G1 X8.244 Y161.589 E40.67616
G1 X8.322 Y158.836 E40.85478
G1 X8.322 Y156.15 E41.02899
G1 X8.243 Y153.389 E41.20813
G1 X8.202 Y152.308 E41.27829
G1 X8.2 Y143.145 E41.87258
G1 X8.216 Y142.355 E41.92383
G1 X8.287 Y141.627 E41.97127
G1 X8.659 Y140.407 E42.05399
G1 X9.013 Y139.306 E42.129
G1 X9.768 Y136.712 E42.30422
G1 X10.439 Y134.126 E42.4775
G1 X11.055 Y131.453 E42.6554
G1 X11.59 Y128.781 E42.83214
G1 X12.047 Y126.115 E43.00757
G1 X12.426 Y123.454 E43.1819
G1 X12.732 Y120.754 E43.35814
G1 X12.961 Y118.074 E43.53259
G1 X13.112 Y115.389 E43.707
G1 X13.19 Y112.629 E43.88608
G1 X13.2 Y111.278 E43.97371
G1 X13.2 Y103.754 E44.46169
G1 X13.16 Y101.002 E44.6402
G1 X13.045 Y98.291 E44.81618
G1 X12.854 Y95.571 E44.99303
G1 X12.592 Y92.936 E45.16477
G1 X12.236 Y90.159 E45.34635
G1 X11.824 Y87.547 E45.51786
G1 X11.325 Y84.855 E45.69543
G1 X10.775 Y82.296 E45.86519
G1 X10.106 Y79.574 E46.04698
G1 X9.405 Y77.024 E46.2185
G1 X8.395 Y73.749 E46.44078
G1 X8.254 Y73.112 E46.4831
G1 X8.204 Y72.575 E46.51807
G1 X8.2 Y63.159 E47.12877
G1 X8.21 Y62.414 E47.17709
G1 X8.244 Y61.588 E47.23071
G1 X8.322 Y58.835 E47.40933
G1 X8.322 Y56.149 E47.58354
G1 X8.243 Y53.388 E47.76269
G1 X8.202 Y52.307 E47.83285
G1 X8.2 Y43.159 E48.42616
G1 X8.21 Y42.414 E48.47448
G1 X8.244 Y41.588 E48.5281
G1 X8.322 Y38.835 E48.70672
G1 X8.322 Y36.149 E48.88093
G1 X8.243 Y33.388 E49.06008
G1 X8.202 Y32.307 E49.13024
G1 X8.2 Y13.126 E50.37426
G1 X8.211 Y12.42 E50.42006
G1 X8.289 Y11.706 E50.46664
G1 X8.468 Y11.058 E50.51024
G1 X8.746 Y10.445 E50.5539
G1 X9.116 Y9.884 E50.59748
G1 X9.569 Y9.386 E50.64115
G0 F12000 X9.898 Y9.789
G1 F3000 X10.356 Y9.415 E50.6795
G1 X10.867 Y9.116 E50.7179
G1 X11.418 Y8.902 E50.75623
G1 X11.985 Y8.777 E50.79389
G1 X12.52 Y8.732 E50.82871
G1 X21.845 Y8.731 E51.43351
G1 X22.577 Y8.741 E51.48099
G1 X23.375 Y8.774 E51.53279
G1 X26.161 Y8.853 E51.71355
G1 X28.846 Y8.853 E51.88769
G1 X31.602 Y8.775 E52.06651
G1 X32.704 Y8.733 E52.13804
G1 X41.845 Y8.731 E52.7309
G1 X42.577 Y8.741 E52.77838
G1 X43.375 Y8.774 E52.83018
G1 X46.161 Y8.853 E53.01094
G1 X48.846 Y8.853 E53.18508
G1 X51.603 Y8.775 E53.36397
G1 X52.704 Y8.733 E53.43543
G1 X61.845 Y8.731 E54.02829
G1 X62.577 Y8.741 E54.07577
G1 X63.375 Y8.774 E54.12757
G1 X66.161 Y8.853 E54.30833
G1 X68.846 Y8.853 E54.48247
G1 X71.603 Y8.775 E54.66136
G1 X72.704 Y8.733 E54.73282
G1 X81.845 Y8.731 E55.32568
G1 X82.577 Y8.741 E55.37316
G1 X83.375 Y8.774 E55.42496
G1 X86.161 Y8.853 E55.60572
G1 X88.846 Y8.853 E55.77986
G1 X91.603 Y8.775 E55.95875
G1 X92.704 Y8.733 E56.03021
G1 X101.851 Y8.731 E56.62345
G1 X102.713 Y8.746 E56.67937
G1 X105.658 Y8.998 E56.87107
G1 X108.369 Y9.15 E57.04718
G1 X111.12 Y9.228 E57.22567
G1 X113.803 Y9.228 E57.39968
G1 X116.552 Y9.15 E57.57805
G1 X119.283 Y8.995 E57.75546
G1 X122.211 Y8.752 E57.94601
G1 X122.738 Y8.732 E57.98022
G1 X131.845 Y8.731 E58.57087
G1 X132.576 Y8.741 E58.61829
G1 X133.375 Y8.774 E58.67015
G1 X136.161 Y8.853 E58.85092
G1 X138.845 Y8.853 E59.02499
G1 X141.603 Y8.775 E59.20394
G1 X142.704 Y8.733 E59.2754
G1 X151.845 Y8.731 E59.86826
G1 X152.576 Y8.741 E59.91568
G1 X153.375 Y8.774 E59.96754
G1 X156.161 Y8.853 E60.14831
G1 X158.845 Y8.853 E60.32238
G1 X161.603 Y8.775 E60.50133
G1 X162.704 Y8.733 E60.57279
G1 X171.845 Y8.731 E61.16565
G1 X172.576 Y8.741 E61.21307
G1 X173.375 Y8.774 E61.26493
G1 X176.161 Y8.853 E61.4457
G1 X178.845 Y8.853 E61.61977
G1 X181.603 Y8.775 E61.79872
G1 X182.704 Y8.733 E61.87018
G1 X191.852 Y8.731 E62.4635
G1 X192.597 Y8.744 E62.51182
G1 X193.185 Y8.806 E62.55017
G1 X193.76 Y8.961 E62.58879
G1 X194.289 Y9.195 E62.62631
G1 X196.472 Y10.404 E62.78816
G1 X198.861 Y11.649 E62.96288
G1 X201.343 Y12.856 E63.14188
G1 X204.085 Y14.093 E63.33698
G1 X204.577 Y14.362 E63.37335
G1 X205.233 Y14.914 E63.42895
G1 X206.177 Y15.904 E63.51767
G1 X208.091 Y17.851 E63.69475
G1 X210.138 Y19.82 E63.87896
G1 X210.526 Y20.266 E63.9173
G1 X210.839 Y20.766 E63.95556
G1 X211.045 Y21.233 E63.98866
G1 X211.215 Y21.883 E64.03224
G1 X211.28 Y22.531 E64.07448
G1 X211.28 Y31.837 E64.67804
G1 X211.27 Y32.576 E64.72597
G1 X211.237 Y33.386 E64.77855
G1 X211.158 Y36.172 E64.95931
G1 X211.158 Y38.873 E65.13449
G1 X211.236 Y41.61 E65.31208
G1 X211.278 Y42.715 E65.3838
G1 X211.28 Y51.837 E65.97543
G1 X211.27 Y52.576 E66.02336
G1 X211.237 Y53.386 E66.07594
G1 X211.158 Y56.172 E66.2567
G1 X211.158 Y58.873 E66.43188
G1 X211.236 Y61.61 E66.60947
G1 X211.278 Y62.715 E66.68119
G1 X211.28 Y71.837 E67.27282
G1 X211.27 Y72.576 E67.32075
G1 X211.237 Y73.386 E67.37333
G1 X211.158 Y76.172 E67.55409
G1 X211.158 Y78.873 E67.72927
G1 X211.236 Y81.61 E67.90686
G1 X211.278 Y82.715 E67.97858
G1 X211.28 Y91.857 E68.5715
G1 X211.27 Y92.577 E68.61821
G1 X211.237 Y93.386 E68.67072
G1 X211.158 Y96.172 E68.85148
G1 X211.158 Y98.873 E69.02666
G1 X211.236 Y101.61 E69.20425
G1 X211.278 Y102.716 E69.27603
G1 X211.28 Y111.858 E69.86896
G1 X211.27 Y112.578 E69.91566
G1 X211.237 Y113.387 E69.96817
G1 X211.158 Y116.173 E70.14894
G1 X211.158 Y118.874 E70.32412
G1 X211.236 Y121.611 E70.5017
G1 X211.278 Y122.716 E70.57342
G1 X211.28 Y131.858 E71.16635
G1 X211.27 Y132.578 E71.21305
G1 X211.237 Y133.387 E71.26556
G1 X211.158 Y136.173 E71.44633
G1 X211.158 Y138.874 E71.62151
G1 X211.236 Y141.611 E71.79909
G1 X211.278 Y142.716 E71.87081
G1 X211.28 Y151.838 E72.46244
G1 X211.27 Y152.577 E72.51037
G1 X211.237 Y153.387 E72.56295
G1 X211.158 Y156.173 E72.74372
G1 X211.158 Y158.874 E72.9189
G1 X211.236 Y161.611 E73.09648
G1 X211.278 Y162.716 E73.1682
G1 X211.28 Y171.838 E73.75983
G1 X211.27 Y172.577 E73.80776
G1 X211.237 Y173.387 E73.86034
G1 X211.158 Y176.173 E74.04111
G1 X211.158 Y178.874 E74.21629
G1 X211.236 Y181.611 E74.39387
G1 X211.278 Y182.716 E74.46559
G1 X211.28 Y191.858 E75.05852
G1 X211.268 Y192.603 E75.10684
G1 X211.22 Y193.111 E75.13994
G1 X211.055 Y193.763 E75.18356
G1 X210.815 Y194.304 E75.22194
G1 X210.543 Y194.735 E75.255
G1 X210.097 Y195.246 E75.29899
G1 X209.086 Y196.209 E75.38954
G1 X207.143 Y198.12 E75.5663
G1 X205.191 Y200.15 E75.74895
G1 X204.771 Y200.524 E75.78543
G1 X204.052 Y200.948 E75.83956
G1 X202.464 Y201.655 E75.9523
G1 X200.019 Y202.805 E76.12754
G1 X197.55 Y204.05 E76.30688
G1 X195.112 Y205.37 E76.48669
G1 X194.302 Y205.821 E76.54682
G1 X193.838 Y206.034 E76.57994
G1 X193.23 Y206.212 E76.62102
G1 X192.546 Y206.289 E76.66567
G1 X183.155 Y206.292 E77.27474
G1 X182.424 Y206.282 E77.32216
G1 X181.625 Y206.249 E77.37402
G1 X178.839 Y206.17 E77.55479
G1 X176.155 Y206.17 E77.72886
G1 X173.397 Y206.248 E77.90781
G1 X172.296 Y206.29 E77.97927
G1 X163.155 Y206.292 E78.57213
G1 X162.424 Y206.282 E78.61955
G1 X161.625 Y206.249 E78.67141
G1 X158.839 Y206.17 E78.85218
G1 X156.155 Y206.17 E79.02625
G1 X153.397 Y206.248 E79.2052
G1 X152.296 Y206.29 E79.27666
G1 X143.155 Y206.292 E79.86952
G1 X142.424 Y206.282 E79.91694
G1 X141.625 Y206.249 E79.9688
G1 X138.839 Y206.17 E80.14957
G1 X136.155 Y206.17 E80.32364
G1 X133.397 Y206.248 E80.50259
G1 X132.296 Y206.29 E80.57405
G1 X123.155 Y206.292 E81.16691
G1 X122.424 Y206.282 E81.21433
G1 X121.625 Y206.249 E81.26619
G1 X118.839 Y206.17 E81.44696
G1 X116.155 Y206.17 E81.62103
G1 X113.397 Y206.248 E81.79998
G1 X112.296 Y206.29 E81.87144
G1 X103.155 Y206.292 E82.4643
G1 X102.424 Y206.282 E82.51172
G1 X101.625 Y206.249 E82.56358
G1 X98.839 Y206.17 E82.74435
G1 X96.155 Y206.17 E82.91842
G1 X93.397 Y206.248 E83.09737
G1 X92.296 Y206.29 E83.16883
G1 X83.155 Y206.292 E83.76169
G1 X82.424 Y206.282 E83.80911
G1 X81.625 Y206.249 E83.86097
G1 X78.839 Y206.17 E84.04174
G1 X76.155 Y206.17 E84.21581
G1 X73.397 Y206.248 E84.39476
G1 X72.296 Y206.29 E84.46622
G1 X63.155 Y206.292 E85.05908
G1 X62.424 Y206.282 E85.1065
G1 X61.625 Y206.249 E85.15836
G1 X58.839 Y206.17 E85.33913
G1 X56.155 Y206.17 E85.5132
G1 X53.397 Y206.248 E85.69215
G1 X52.296 Y206.29 E85.76361
G1 X43.155 Y206.292 E86.35647
G1 X42.424 Y206.282 E86.40389
G1 X41.625 Y206.249 E86.45575
G1 X38.839 Y206.17 E86.63652
G1 X36.155 Y206.17 E86.81059
G1 X33.397 Y206.248 E86.98954
G1 X32.296 Y206.29 E87.061
G1 X23.154 Y206.292 E87.65393
G1 X22.409 Y206.28 E87.70225
G1 X21.821 Y206.219 E87.74059
G1 X21.284 Y206.082 E87.77654
G1 X20.667 Y205.807 E87.82035
G1 X18.54 Y204.624 E87.9782
G1 X16.127 Y203.367 E88.15466
G1 X13.682 Y202.179 E88.33097
G1 X10.922 Y200.935 E88.52731
G1 X10.407 Y200.646 E88.56562
G1 X10.003 Y200.334 E88.59872
G1 X9.592 Y199.906 E88.63721
G1 X9.254 Y199.423 E88.67544
G1 X8.994 Y198.891 E88.71385
G1 X8.81 Y198.288 E88.75474
