;FLAVOR:Marlin
;TIME:36088
;Filament used: 39.5638m
;Layer height: 0.15
;MINX:10.7
;MINY:28.2
;MINZ:0.3
;MAXX:209.3
;MAXY:191.8
;MAXZ:4.95
;TARGET_MACHINE.NAME:Tyro
;Generated with Cura_SteamEngine 5.6.0
M140 S100
M105
M190 S100
M104 S250
M105
M109 S250
M82 ;absolute extrusion mode
G28;
M400
G29 V4 T;
M400
G1 X-8 Y100 Z0.8 F3000;
G92 E0;
G1 E30 F200;
G92 E0;
G1 E-3;
G1 Z1 F3000;
G1 X10 Y10 Z0.3 F3000;
G1 X0 Y30 Z1 F10000;
G1 X10 Y10 Z0.3 F10000;
G1 Z5 F3000
G92 E0
G92 E0
G1 F3900 E-3.5
;LAYER_COUNT:32
;LAYER:0
M107
G1 F600 Z0.5
G0 F12000 X17.875 Y33.778 Z0.5
;TYPE:SKIRT
G1 F600 Z0.3
G1 F3900 E0
G1 F3000 X18.586 Y33.436 E0.05117
G1 X20.204 Y33.013 E0.15964
G1 X22.83 Y32.287 E0.33634
G1 X25.398 Y31.498 E0.51058
G1 X27.972 Y30.628 E0.6868
G1 X30.527 Y29.683 E0.86348
G1 X33.481 Y28.494 E1.07001
G1 X34.061 Y28.312 E1.10943
G1 X34.855 Y28.209 E1.16136
G1 X44.352 Y28.2 E1.77731
G1 X45.098 Y28.21 E1.8257
G1 X45.896 Y28.243 E1.8775
G1 X48.676 Y28.322 E2.05787
G1 X51.331 Y28.322 E2.23007
G1 X54.082 Y28.244 E2.40856
G1 X55.204 Y28.202 E2.48139
G1 X64.352 Y28.2 E3.0747
G1 X65.098 Y28.21 E3.12309
G1 X65.896 Y28.243 E3.17489
G1 X68.676 Y28.322 E3.35526
G1 X71.331 Y28.322 E3.52746
G1 X74.083 Y28.244 E3.70602
G1 X75.204 Y28.202 E3.77877
G1 X144.352 Y28.2 E8.26352
G1 X145.098 Y28.21 E8.31191
G1 X145.896 Y28.243 E8.36371
G1 X148.676 Y28.322 E8.54409
G1 X151.331 Y28.322 E8.71628
G1 X154.083 Y28.244 E8.89484
G1 X155.204 Y28.202 E8.9676
G1 X164.352 Y28.2 E9.56091
G1 X165.098 Y28.21 E9.6093
G1 X165.896 Y28.243 E9.6611
G1 X168.676 Y28.322 E9.84148
G1 X171.331 Y28.322 E10.01367
G1 X174.083 Y28.244 E10.19223
G1 X175.204 Y28.202 E10.26499
G1 X184.361 Y28.2 E10.85889
G1 X185.149 Y28.215 E10.91
G1 X185.942 Y28.291 E10.96167
G1 X187.028 Y28.656 E11.03598
G1 X188.571 Y29.199 E11.14207
G1 X191.165 Y30.034 E11.31881
G1 X193.726 Y30.776 E11.49174
G1 X196.339 Y31.454 E11.66682
G1 X198.999 Y32.064 E11.84382
G1 X201.663 Y32.597 E12.02003
G1 X203.39 Y32.9 E12.13375
G1 X205.753 Y33.281 E12.28898
G1 X206.406 Y33.452 E12.33276
G1 X207.021 Y33.723 E12.37635
G1 X207.586 Y34.085 E12.41987
G1 X208.089 Y34.532 E12.46352
G1 X208.469 Y34.986 E12.50191
G1 X208.82 Y35.56 E12.54555
G1 X209.077 Y36.182 E12.5892
G1 X209.246 Y36.896 E12.63679
G1 X209.295 Y37.415 E12.6706
G1 X209.3 Y181.824 E22.03657
G1 X209.288 Y182.592 E22.08639
G1 X209.21 Y183.306 E22.13297
G1 X209.031 Y183.954 E22.17657
G1 X208.753 Y184.566 E22.22017
G1 X208.383 Y185.127 E22.26375
G1 X207.93 Y185.625 E22.30742
G1 X207.405 Y186.045 E22.35102
G1 X206.824 Y186.378 E22.39445
G1 X206.35 Y186.568 E22.42757
G1 X205.658 Y186.739 E22.47381
G1 X202.934 Y187.167 E22.65264
G1 X200.258 Y187.666 E22.82919
G1 X197.612 Y188.238 E23.00477
G1 X195.01 Y188.876 E23.17853
G1 X192.367 Y189.605 E23.35635
G1 X189.806 Y190.392 E23.53011
G1 X186.337 Y191.573 E23.76778
G1 X185.766 Y191.718 E23.80599
G1 X184.994 Y191.799 E23.85634
G1 X175.648 Y191.8 E24.46249
G1 X174.903 Y191.79 E24.51082
G1 X174.104 Y191.757 E24.56268
G1 X171.324 Y191.678 E24.74306
G1 X168.67 Y191.678 E24.91519
G1 X165.917 Y191.756 E25.09381
G1 X164.796 Y191.798 E25.16657
G1 X155.648 Y191.8 E25.75988
G1 X154.903 Y191.79 E25.8082
G1 X154.104 Y191.757 E25.86007
G1 X151.324 Y191.678 E26.04045
G1 X148.67 Y191.678 E26.21258
G1 X145.917 Y191.756 E26.3912
G1 X144.796 Y191.798 E26.46396
G1 X135.648 Y191.8 E27.05727
G1 X134.903 Y191.79 E27.10559
G1 X134.104 Y191.757 E27.15746
G1 X131.324 Y191.678 E27.33784
G1 X128.67 Y191.678 E27.50997
G1 X125.917 Y191.756 E27.68859
G1 X124.796 Y191.798 E27.76135
G1 X115.648 Y191.8 E28.35466
G1 X114.903 Y191.79 E28.40298
G1 X114.104 Y191.757 E28.45485
G1 X111.324 Y191.678 E28.63522
G1 X108.67 Y191.678 E28.80736
G1 X105.917 Y191.756 E28.98598
G1 X104.796 Y191.798 E29.05874
G1 X95.648 Y191.8 E29.65205
G1 X94.903 Y191.79 E29.70037
G1 X94.104 Y191.757 E29.75224
G1 X91.324 Y191.678 E29.93261
G1 X88.67 Y191.678 E30.10474
G1 X85.917 Y191.756 E30.28337
G1 X84.796 Y191.798 E30.35612
G1 X75.648 Y191.8 E30.94944
G1 X74.903 Y191.79 E30.99776
G1 X74.104 Y191.757 E31.04963
G1 X71.324 Y191.678 E31.23
G1 X68.67 Y191.678 E31.40213
G1 X65.917 Y191.756 E31.58076
G1 X64.796 Y191.798 E31.65351
G1 X55.648 Y191.8 E32.24683
G1 X54.903 Y191.79 E32.29515
G1 X54.104 Y191.757 E32.34702
G1 X51.324 Y191.678 E32.52739
G1 X48.67 Y191.678 E32.69952
G1 X45.917 Y191.756 E32.87815
G1 X44.796 Y191.798 E32.9509
G1 X35.639 Y191.8 E33.5448
G1 X34.851 Y191.785 E33.59592
G1 X34.25 Y191.729 E33.63507
G1 X33.449 Y191.497 E33.68915
G1 X32.498 Y191.118 E33.75555
G1 X31.584 Y190.736 E33.8198
G1 X29.07 Y189.768 E33.99452
G1 X26.526 Y188.87 E34.16949
G1 X23.957 Y188.044 E34.34451
G1 X21.349 Y187.287 E34.52064
G1 X18.879 Y186.639 E34.68626
G1 X18.205 Y186.392 E34.73282
G1 X17.622 Y186.067 E34.77611
G1 X17.215 Y185.759 E34.80921
G1 X16.69 Y185.223 E34.85787
G1 X16.229 Y184.575 E34.90945
G1 X15.385 Y182.684 E35.04375
G1 X14.243 Y180.254 E35.21789
G1 X13.002 Y177.792 E35.39671
G1 X11.681 Y175.35 E35.57678
G1 X11.218 Y174.518 E35.63854
G1 X11.005 Y174.054 E35.67165
G1 X10.788 Y173.332 E35.72054
G1 X10.706 Y172.604 E35.76806
G1 X10.7 Y163.148 E36.38135
G1 X10.71 Y162.393 E36.43032
G1 X10.743 Y161.596 E36.48206
G1 X10.822 Y158.818 E36.6623
G1 X10.822 Y156.132 E36.83651
G1 X10.743 Y153.371 E37.01565
G1 X10.702 Y152.297 E37.08536
G1 X10.7 Y143.148 E37.67874
G1 X10.71 Y142.403 E37.72706
G1 X10.743 Y141.604 E37.77893
G1 X10.822 Y138.824 E37.9593
G1 X10.822 Y136.138 E38.13351
G1 X10.743 Y133.377 E38.31266
G1 X10.702 Y132.296 E38.38282
G1 X10.7 Y123.144 E38.97639
G1 X10.719 Y121.84 E39.06097
G1 X10.767 Y120.149 E39.17069
G1 X10.769 Y117.45 E39.34574
G1 X10.701 Y114.765 E39.51994
G1 X10.7 Y105.644 E40.1115
G1 X10.719 Y104.34 E40.19608
G1 X10.767 Y102.649 E40.3058
G1 X10.769 Y99.95 E40.48085
G1 X10.701 Y97.265 E40.65505
G1 X10.7 Y88.148 E41.24635
G1 X10.71 Y87.403 E41.29468
G1 X10.743 Y86.604 E41.34654
G1 X10.822 Y83.824 E41.52692
G1 X10.822 Y81.138 E41.70112
G1 X10.743 Y78.377 E41.88027
G1 X10.702 Y77.296 E41.95043
G1 X10.7 Y68.148 E42.54374
G1 X10.71 Y67.393 E42.59271
G1 X10.743 Y66.596 E42.64445
G1 X10.822 Y63.818 E42.8247
G1 X10.822 Y61.132 E42.9989
G1 X10.743 Y58.371 E43.17805
G1 X10.702 Y57.297 E43.24775
G1 X10.7 Y48.146 E43.84126
G1 X10.714 Y47.36 E43.89225
G1 X10.762 Y46.852 E43.92534
G1 X10.936 Y46.115 E43.97446
G1 X11.249 Y45.418 E44.02401
G1 X12.437 Y43.277 E44.18282
G1 X13.67 Y40.912 E44.3558
G1 X14.879 Y38.425 E44.53515
G1 X16.106 Y35.706 E44.72862
G1 X16.462 Y35.081 E44.77527
G1 X16.829 Y34.617 E44.81364
G1 X17.382 Y34.107 E44.86243
G1 X17.875 Y33.778 E44.90087
G0 F12000 X18.164 Y34.211
G1 F3000 X18.765 Y33.927 E44.94398
G1 X20.336 Y33.516 E45.0493
G1 X22.979 Y32.785 E45.22715
G1 X25.565 Y31.991 E45.4026
G1 X28.139 Y31.121 E45.57882
G1 X30.708 Y30.17 E45.75649
G1 X33.636 Y28.99 E45.96124
G1 X34.169 Y28.823 E45.99746
G1 X34.922 Y28.725 E46.04671
G1 X44.345 Y28.72 E46.65786
G1 X45.077 Y28.73 E46.70534
G1 X45.875 Y28.763 E46.75714
G1 X48.661 Y28.842 E46.93791
G1 X51.346 Y28.842 E47.11205
G1 X54.102 Y28.764 E47.29087
G1 X55.204 Y28.722 E47.36239
G1 X64.345 Y28.72 E47.95525
G1 X65.077 Y28.73 E48.00273
G1 X65.875 Y28.763 E48.05453
G1 X68.661 Y28.842 E48.2353
G1 X71.346 Y28.842 E48.40944
G1 X74.103 Y28.764 E48.58832
G1 X75.204 Y28.722 E48.65978
G1 X144.345 Y28.72 E53.14408
G1 X145.077 Y28.73 E53.19156
G1 X145.875 Y28.763 E53.24336
G1 X148.661 Y28.842 E53.42412
G1 X151.346 Y28.842 E53.59826
G1 X154.103 Y28.764 E53.77715
G1 X155.204 Y28.722 E53.84861
G1 X164.345 Y28.72 E54.44147
G1 X165.077 Y28.73 E54.48895
G1 X165.875 Y28.763 E54.54075
G1 X168.661 Y28.842 E54.72151
G1 X171.346 Y28.842 E54.89565
G1 X174.103 Y28.764 E55.07454
G1 X175.204 Y28.722 E55.146
G1 X184.352 Y28.72 E55.73931
G1 X185.1 Y28.733 E55.78783
G1 X185.833 Y28.803 E55.83559
G1 X186.855 Y29.147 E55.90553
G1 X188.398 Y29.69 E56.01162
G1 X191.006 Y30.529 E56.1893
G1 X193.595 Y31.279 E56.36412
G1 X196.223 Y31.961 E56.54021
G1 X198.89 Y32.573 E56.71768
G1 X201.561 Y33.107 E56.89434
G1 X203.3 Y33.412 E57.00885
G1 X205.626 Y33.785 E57.16164
G1 X206.201 Y33.93 E57.2001
G1 X206.744 Y34.163 E57.23842
G1 X207.244 Y34.477 E57.27671
G1 X207.69 Y34.866 E57.3151
G1 X208.07 Y35.32 E57.3535
G1 X208.374 Y35.827 E57.39184
G1 X208.595 Y36.376 E57.43022
G1 X208.728 Y36.945 E57.46812
G1 X208.777 Y37.464 E57.50193
G1 X208.78 Y181.816 E66.8642
G1 X208.768 Y182.584 E66.91402
G1 X208.707 Y183.172 E66.95236
G1 X208.555 Y183.744 E66.99075
G1 X208.316 Y184.284 E67.02905
G1 X207.995 Y184.781 E67.06742
G1 X207.601 Y185.222 E67.10577
G1 X207.143 Y185.596 E67.14413
G1 X206.631 Y185.895 E67.18258
G1 X206.157 Y186.085 E67.2157
G1 X205.577 Y186.225 E67.2544
G1 X202.853 Y186.653 E67.43324
G1 X200.155 Y187.157 E67.61125
G1 X197.488 Y187.733 E67.78821
G1 X194.886 Y188.371 E67.96197
G1 X192.214 Y189.108 E68.14174
G1 X189.639 Y189.899 E68.31645
G1 X186.993 Y190.794 E68.49761
G1 X186.203 Y191.07 E68.55189
G1 X185.71 Y191.201 E68.58497
G1 X184.994 Y191.279 E68.63168
G1 X175.655 Y191.28 E69.23738
G1 X174.924 Y191.27 E69.2848
G1 X174.125 Y191.237 E69.33666
G1 X171.339 Y191.158 E69.51743
G1 X168.655 Y191.158 E69.69151
G1 X165.897 Y191.236 E69.87045
G1 X164.796 Y191.278 E69.94191
G1 X155.655 Y191.28 E70.53477
G1 X154.924 Y191.27 E70.58219
G1 X154.125 Y191.237 E70.63405
G1 X151.339 Y191.158 E70.81482
G1 X148.655 Y191.158 E70.9889
G1 X145.897 Y191.236 E71.16784
G1 X144.796 Y191.278 E71.2393
G1 X135.655 Y191.28 E71.83216
G1 X134.924 Y191.27 E71.87958
G1 X134.125 Y191.237 E71.93144
G1 X131.339 Y191.158 E72.11221
G1 X128.655 Y191.158 E72.28629
G1 X125.897 Y191.236 E72.46523
G1 X124.796 Y191.278 E72.53669
G1 X115.655 Y191.28 E73.12955
G1 X114.924 Y191.27 E73.17697
G1 X114.125 Y191.237 E73.22883
G1 X111.339 Y191.158 E73.4096
G1 X108.655 Y191.158 E73.58368
G1 X105.897 Y191.236 E73.76262
G1 X104.796 Y191.278 E73.83408
G1 X95.655 Y191.28 E74.42694
G1 X94.924 Y191.27 E74.47436
G1 X94.125 Y191.237 E74.52622
G1 X91.339 Y191.158 E74.70699
G1 X88.655 Y191.158 E74.88107
G1 X85.897 Y191.236 E75.06001
G1 X84.796 Y191.278 E75.13147
G1 X75.655 Y191.28 E75.72433
G1 X74.924 Y191.27 E75.77175
G1 X74.125 Y191.237 E75.82361
G1 X71.339 Y191.158 E76.00438
G1 X68.655 Y191.158 E76.17846
G1 X65.897 Y191.236 E76.3574
G1 X64.796 Y191.278 E76.42886
G1 X55.655 Y191.28 E77.02172
G1 X54.924 Y191.27 E77.06914
G1 X54.125 Y191.237 E77.121
G1 X51.339 Y191.158 E77.30177
G1 X48.655 Y191.158 E77.47585
G1 X45.897 Y191.236 E77.65479
G1 X44.796 Y191.278 E77.72625
G1 X35.648 Y191.28 E78.31957
G1 X34.9 Y191.267 E78.36809
G1 X34.346 Y191.215 E78.40418
G1 X33.642 Y191.014 E78.45166
G1 X32.699 Y190.638 E78.5175
G1 X31.785 Y190.256 E78.58175
G1 X29.257 Y189.283 E78.75744
G1 X26.685 Y188.375 E78.93434
G1 X24.116 Y187.549 E79.10936
G1 X21.481 Y186.784 E79.28731
G1 X19.011 Y186.136 E79.45293
G1 X18.455 Y185.936 E79.49126
G1 X17.936 Y185.652 E79.52963
G1 X17.529 Y185.344 E79.56273
G1 X17.114 Y184.921 E79.60116
G1 X16.682 Y184.314 E79.64948
G1 X15.86 Y182.472 E79.78031
G1 X14.714 Y180.033 E79.95509
G1 X13.466 Y177.558 E80.13486
G1 X12.138 Y175.103 E80.31589
G1 X11.691 Y174.301 E80.37544
G1 X11.478 Y173.837 E80.40855
G1 X11.3 Y173.229 E80.44964
G1 X11.223 Y172.546 E80.49422
G1 X11.22 Y163.155 E81.10329
G1 X11.23 Y162.415 E81.15129
G1 X11.263 Y161.618 E81.20303
G1 X11.342 Y158.833 E81.38373
G1 X11.342 Y156.132 E81.5589
G1 X11.263 Y153.356 E81.73902
G1 X11.222 Y152.297 E81.80776
G1 X11.22 Y143.155 E82.40068
G1 X11.23 Y142.424 E82.4481
G1 X11.263 Y141.625 E82.49996
G1 X11.342 Y138.839 E82.68073
G1 X11.342 Y136.138 E82.85591
G1 X11.263 Y133.362 E83.03602
G1 X11.222 Y132.296 E83.10521
G1 X11.22 Y123.152 E83.69827
G1 X11.239 Y121.855 E83.7824
G1 X11.287 Y120.164 E83.89211
G1 X11.289 Y117.45 E84.06814
G1 X11.221 Y114.765 E84.24233
G1 X11.22 Y105.652 E84.83338
G1 X11.239 Y104.355 E84.91751
G1 X11.287 Y102.664 E85.02722
G1 X11.289 Y99.95 E85.20325
G1 X11.221 Y97.265 E85.37745
G1 X11.22 Y88.155 E85.96829
G1 X11.23 Y87.424 E86.01571
G1 X11.263 Y86.625 E86.06758
G1 X11.342 Y83.839 E86.24834
G1 X11.342 Y81.138 E86.42352
G1 X11.263 Y78.362 E86.60364
G1 X11.222 Y77.296 E86.67283
G1 X11.22 Y68.155 E87.26569
G1 X11.23 Y67.415 E87.31368
G1 X11.263 Y66.618 E87.36542
G1 X11.342 Y63.833 E87.54612
G1 X11.342 Y61.132 E87.7213
G1 X11.263 Y58.356 E87.90142
G1 X11.222 Y57.297 E87.97015
G1 X11.22 Y48.154 E88.56314
G1 X11.232 Y47.409 E88.61147
G1 X11.28 Y46.901 E88.64456
G1 X11.429 Y46.286 E88.6856
G1 X11.704 Y45.67 E88.72935
G1 X12.892 Y43.529 E88.88816
G1 X14.138 Y41.139 E89.06297
G1 X15.347 Y38.652 E89.24232
G1 X16.58 Y35.92 E89.43672
G1 X16.87 Y35.404 E89.47511
G1 X17.237 Y34.94 E89.51348
G1 X17.671 Y34.54 E89.55176
G1 X18.164 Y34.211 E89.5902
G0 F12000 X18.386 Y34.681
G1 F3000 X18.942 Y34.418 E89.63009
G1 X20.468 Y34.019 E89.73239
G1 X23.128 Y33.283 E89.91139
G1 X25.731 Y32.484 E90.08799
G1 X28.32 Y31.609 E90.26523
G1 X30.889 Y30.658 E90.4429
G1 X33.792 Y29.486 E90.64595
G1 X34.279 Y29.333 E90.67905
G1 X34.989 Y29.241 E90.72549
G1 X44.338 Y29.24 E91.33184
G1 X45.056 Y29.25 E91.37841
G1 X45.854 Y29.283 E91.43021
G1 X48.646 Y29.362 E91.61137
G1 X51.361 Y29.362 E91.78745
G1 X54.122 Y29.284 E91.9666
G1 X55.204 Y29.242 E92.03682
G1 X64.338 Y29.24 E92.62923
G1 X65.056 Y29.25 E92.6758
G1 X65.854 Y29.283 E92.7276
G1 X68.646 Y29.362 E92.90876
G1 X71.361 Y29.362 E93.08484
G1 X74.123 Y29.284 E93.26405
G1 X75.204 Y29.242 E93.33421
G1 X144.338 Y29.24 E97.81806
G1 X145.056 Y29.25 E97.86463
G1 X145.854 Y29.283 E97.91643
G1 X148.646 Y29.362 E98.09758
G1 X151.361 Y29.362 E98.27367
G1 X154.123 Y29.284 E98.45288
G1 X155.204 Y29.242 E98.52304
G1 X164.338 Y29.24 E99.11545
G1 X165.056 Y29.25 E99.16202
G1 X165.854 Y29.283 E99.21382
G1 X168.646 Y29.362 E99.39497
G1 X171.361 Y29.362 E99.57106
G1 X174.123 Y29.284 E99.75027
G1 X175.204 Y29.242 E99.82043
G1 X184.344 Y29.24 E100.41323
G1 X185.051 Y29.251 E100.45909
G1 X185.724 Y29.315 E100.50293
G1 X186.682 Y29.638 E100.5685
G1 X188.225 Y30.181 E100.67459
G1 X190.847 Y31.024 E100.85322
G1 X193.464 Y31.782 E101.02993
G1 X196.107 Y32.468 E101.20703
G1 X198.781 Y33.082 E101.38497
G1 X201.459 Y33.617 E101.56209
G1 X203.218 Y33.926 E101.67792
G1 X205.505 Y34.291 E101.82813
G1 X206.001 Y34.41 E101.86121
G1 X206.472 Y34.606 E101.89429
G1 X206.907 Y34.873 E101.9274
G1 X207.295 Y35.204 E101.96048
G1 X207.627 Y35.592 E101.9936
G1 X207.894 Y36.027 E102.0267
G1 X208.09 Y36.498 E102.05979
G1 X208.21 Y36.994 E102.09288
G1 X208.259 Y37.513 E102.12669
G1 X208.26 Y181.809 E111.48534
G1 X208.25 Y182.536 E111.53249
G1 X208.203 Y183.044 E111.56558
G1 X208.077 Y183.539 E111.59871
G1 X207.876 Y184.007 E111.63174
G1 X207.604 Y184.439 E111.66485
G1 X207.268 Y184.823 E111.69795
G1 X206.876 Y185.15 E111.73106
G1 X206.438 Y185.412 E111.76416
G1 X205.964 Y185.602 E111.79728
G1 X205.496 Y185.711 E111.82844
G1 X202.772 Y186.139 E112.00728
G1 X200.059 Y186.646 E112.18629
G1 X197.364 Y187.228 E112.36511
G1 X194.762 Y187.866 E112.53886
G1 X192.061 Y188.611 E112.72058
G1 X189.472 Y189.406 E112.89624
G1 X186.826 Y190.301 E113.0774
G1 X186.069 Y190.567 E113.12944
G1 X185.576 Y190.698 E113.16253
G1 X184.994 Y190.759 E113.20048
G1 X175.662 Y190.76 E113.80573
G1 X174.945 Y190.75 E113.85223
G1 X174.146 Y190.717 E113.9041
G1 X171.354 Y190.638 E114.08525
G1 X168.64 Y190.638 E114.26128
G1 X165.877 Y190.716 E114.44055
G1 X164.796 Y190.758 E114.51071
G1 X155.662 Y190.76 E115.10312
G1 X154.945 Y190.75 E115.14962
G1 X154.146 Y190.717 E115.20149
G1 X151.354 Y190.638 E115.38264
G1 X148.64 Y190.638 E115.55867
G1 X145.877 Y190.716 E115.73794
G1 X144.796 Y190.758 E115.8081
G1 X135.662 Y190.76 E116.40051
G1 X134.945 Y190.75 E116.44702
G1 X134.146 Y190.717 E116.49888
G1 X131.354 Y190.638 E116.68003
G1 X128.64 Y190.638 E116.85606
G1 X125.877 Y190.716 E117.03533
G1 X124.796 Y190.758 E117.10549
G1 X115.662 Y190.76 E117.6979
G1 X114.945 Y190.75 E117.74441
G1 X114.146 Y190.717 E117.79627
G1 X111.354 Y190.638 E117.97743
G1 X108.64 Y190.638 E118.15345
G1 X105.877 Y190.716 E118.33272
G1 X104.796 Y190.758 E118.40288
G1 X95.662 Y190.76 E118.99529
G1 X94.945 Y190.75 E119.0418
G1 X94.146 Y190.717 E119.09366
G1 X91.354 Y190.638 E119.27482
G1 X88.64 Y190.638 E119.45084
