;FLAVOR:Marlin
;TIME:1819
;Filament used: 2.19739m
;Layer height: 0.15
;MINX:91.377
;MINY:90.203
;MINZ:0.3
;MAXX:129.982
;MAXY:128.81
;MAXZ:15.2
;TARGET_MACHINE.NAME:Tyro
;Generated with Cura_SteamEngine 5.6.0
M140 S100
M105
M190 S100
M104 S250
M105
M109 S250
M82 ;absolute extrusion mode
G28;
M400
G29 V4 T;
M400
G1 X-8 Y100 Z0.8 F3000;
G92 E0;
G1 E30 F200;
G92 E0;
G1 E-3;
G1 Z1 F3000;
G1 X10 Y10 Z0.3 F3000;
G1 X0 Y30 Z1 F10000;
G1 X10 Y10 Z0.3 F10000;
G1 Z5 F3000
G92 E0
G92 E0
G1 F3900 E-3.5
;LAYER_COUNT:99
;LAYER:0
M106 S33.4
G1 F600 Z0.5
G0 F12000 X96.019 Y97.131 Z0.5
;TYPE:SKIRT
G1 F600 Z0.3
G1 F3900 E0
G1 F3000 X98.381 Y94.769 E0.21665
G1 X98.89 Y94.276 E0.26261
G1 X99.497 Y93.771 E0.31382
G1 X100.614 Y93.181 E0.39575
G1 X103.491 Y91.715 E0.60517
G1 X104.207 Y91.365 E0.65686
G1 X104.897 Y91.09 E0.70503
G1 X106.19 Y90.862 E0.79019
G1 X109.379 Y90.358 E0.99959
G1 X110.138 Y90.252 E1.04929
G1 X110.889 Y90.203 E1.0981
G1 X112.123 Y90.381 E1.17896
G1 X115.339 Y90.892 E1.39016
G1 X116.113 Y91.028 E1.44113
G1 X116.84 Y91.212 E1.48977
G1 X117.964 Y91.766 E1.57104
G1 X120.843 Y93.232 E1.78058
G1 X121.555 Y93.61 E1.83286
G1 X122.188 Y94.01 E1.88143
G1 X123.053 Y94.847 E1.95949
G1 X125.415 Y97.209 E2.17614
G1 X125.881 Y97.688 E2.21948
G1 X126.415 Y98.326 E2.27344
G1 X127.002 Y99.441 E2.35517
G1 X128.456 Y102.292 E2.56274
G1 X128.82 Y103.036 E2.61645
G1 X129.096 Y103.727 E2.66471
G1 X129.322 Y105.018 E2.74972
G1 X129.825 Y108.207 E2.9591
G1 X129.931 Y108.962 E3.00855
G1 X129.982 Y109.71 E3.05718
G1 X129.803 Y110.951 E3.1385
G1 X129.292 Y114.167 E3.3497
G1 X129.156 Y114.941 E3.40066
G1 X128.972 Y115.668 E3.4493
G1 X128.418 Y116.792 E3.53058
G1 X126.952 Y119.671 E3.74011
G1 X126.574 Y120.383 E3.7924
G1 X126.174 Y121.016 E3.84096
G1 X125.337 Y121.881 E3.91903
G1 X122.975 Y124.243 E4.13567
G1 X122.466 Y124.736 E4.18163
G1 X121.859 Y125.241 E4.23285
G1 X120.742 Y125.831 E4.31478
G1 X117.865 Y127.297 E4.5242
G1 X117.149 Y127.647 E4.57589
G1 X116.459 Y127.922 E4.62406
G1 X115.166 Y128.15 E4.70922
G1 X111.985 Y128.653 E4.91809
G1 X111.219 Y128.76 E4.96825
G1 X110.467 Y128.81 E5.01713
G1 X109.233 Y128.63 E5.09801
G1 X105.279 Y127.994 E5.35776
G1 X104.634 Y127.826 E5.40099
G1 X104.096 Y127.601 E5.43881
G1 X100.512 Y125.78 E5.69954
G1 X99.8 Y125.403 E5.75179
G1 X99.168 Y125.004 E5.80027
G1 X98.303 Y124.165 E5.87842
G1 X95.938 Y121.798 E6.09544
G1 X95.418 Y121.258 E6.14406
G1 X94.936 Y120.677 E6.19302
G1 X94.353 Y119.57 E6.27416
G1 X92.887 Y116.693 E6.48359
G1 X92.537 Y115.977 E6.53528
G1 X92.262 Y115.287 E6.58345
G1 X92.034 Y113.994 E6.66861
G1 X91.53 Y110.805 E6.878
G1 X91.424 Y110.045 E6.92777
G1 X91.377 Y109.296 E6.97644
G1 X91.549 Y108.08 E7.0561
G1 X92.064 Y104.833 E7.26932
G1 X92.199 Y104.061 E7.32015
G1 X92.372 Y103.424 E7.36296
G1 X92.585 Y102.921 E7.39839
G1 X94.404 Y99.341 E7.65883
G1 X94.782 Y98.629 E7.71111
G1 X95.182 Y97.996 E7.75968
G1 X96.019 Y97.131 E7.83774
G0 F12000 X96.387 Y97.499
G1 F3000 X98.744 Y95.142 E8.05393
G1 X99.223 Y94.676 E8.09727
G1 X99.789 Y94.205 E8.14503
G1 X100.85 Y93.644 E8.22287
G1 X103.721 Y92.182 E8.43183
G1 X104.4 Y91.848 E8.48091
G1 X105.041 Y91.592 E8.52567
G1 X106.271 Y91.376 E8.60667
G1 X109.452 Y90.873 E8.81554
G1 X110.172 Y90.771 E8.86271
G1 X110.868 Y90.726 E8.90794
G1 X112.042 Y90.895 E8.98487
G1 X115.25 Y91.404 E9.19553
G1 X115.985 Y91.532 E9.24392
G1 X116.657 Y91.702 E9.28888
G1 X117.728 Y92.229 E9.36629
G1 X120.6 Y93.692 E9.57534
G1 X121.278 Y94.05 E9.62507
G1 X121.866 Y94.421 E9.67016
G1 X122.685 Y95.215 E9.74414
G1 X125.042 Y97.572 E9.96033
G1 X125.508 Y98.051 E10.00367
G1 X125.981 Y98.617 E10.05151
G1 X126.539 Y99.677 E10.12921
G1 X127.989 Y102.521 E10.33625
G1 X128.337 Y103.229 E10.38742
G1 X128.593 Y103.871 E10.43224
G1 X128.808 Y105.099 E10.5131
G1 X129.31 Y108.28 E10.72196
G1 X129.412 Y108.997 E10.76893
G1 X129.459 Y109.69 E10.81398
G1 X129.289 Y110.87 E10.89131
G1 X128.78 Y114.078 E11.10197
G1 X128.652 Y114.813 E11.15036
G1 X128.482 Y115.485 E11.19532
G1 X127.955 Y116.556 E11.27273
G1 X126.492 Y119.428 E11.48178
G1 X126.134 Y120.106 E11.5315
G1 X125.763 Y120.694 E11.5766
G1 X124.969 Y121.513 E11.65058
G1 X122.612 Y123.87 E11.86677
G1 X122.133 Y124.336 E11.91011
G1 X121.567 Y124.807 E11.95787
G1 X120.506 Y125.368 E12.03571
G1 X117.635 Y126.83 E12.24467
G1 X116.956 Y127.164 E12.29374
G1 X116.315 Y127.42 E12.33851
G1 X115.085 Y127.636 E12.41951
G1 X111.912 Y128.138 E12.62786
G1 X111.185 Y128.241 E12.67548
G1 X110.489 Y128.287 E12.72072
G1 X109.315 Y128.117 E12.79765
G1 X105.406 Y127.49 E13.05442
G1 X104.834 Y127.346 E13.09268
G1 X104.332 Y127.137 E13.12795
G1 X100.755 Y125.32 E13.38816
G1 X100.078 Y124.963 E13.43779
G1 X99.489 Y124.591 E13.48298
G1 X98.671 Y123.797 E13.55691
G1 X96.312 Y121.437 E13.77333
G1 X95.818 Y120.926 E13.81943
G1 X95.372 Y120.388 E13.86475
G1 X94.816 Y119.334 E13.94204
G1 X93.354 Y116.463 E14.151
G1 X93.02 Y115.784 E14.20008
G1 X92.764 Y115.143 E14.24484
G1 X92.548 Y113.913 E14.32584
G1 X92.045 Y110.732 E14.53471
G1 X91.943 Y110.012 E14.58187
G1 X91.899 Y109.317 E14.62704
G1 X92.063 Y108.161 E14.70277
G1 X92.576 Y104.922 E14.91546
G1 X92.702 Y104.193 E14.96344
G1 X92.851 Y103.626 E15.00146
G1 X93.049 Y103.157 E15.03448
G1 X94.864 Y99.584 E15.2944
G1 X95.222 Y98.906 E15.34413
G1 X95.593 Y98.318 E15.38922
G1 X96.387 Y97.499 E15.4632
G0 F12000 X96.755 Y97.867
G1 F3000 X99.107 Y95.515 E15.67893
G1 X99.586 Y95.049 E15.72227
G1 X100.078 Y94.64 E15.76377
G1 X101.086 Y94.107 E15.83772
G1 X103.951 Y92.648 E16.04625
G1 X104.593 Y92.331 E16.09268
G1 X105.185 Y92.094 E16.13404
G1 X106.352 Y91.89 E16.21088
G1 X109.526 Y91.388 E16.41929
G1 X110.205 Y91.29 E16.46379
G1 X110.846 Y91.249 E16.50545
G1 X111.961 Y91.409 E16.5785
G1 X115.162 Y91.916 E16.7887
G1 X115.857 Y92.036 E16.83444
G1 X116.476 Y92.193 E16.87586
G1 X117.492 Y92.692 E16.94927
G1 X120.358 Y94.152 E17.15788
G1 X121.001 Y94.49 E17.205
G1 X121.544 Y94.832 E17.24662
G1 X122.317 Y95.583 E17.31652
G1 X124.669 Y97.935 E17.53225
G1 X125.135 Y98.414 E17.57559
G1 X125.545 Y98.906 E17.61713
G1 X126.076 Y99.913 E17.69096
G1 X127.523 Y102.751 E17.89757
G1 X127.854 Y103.422 E17.9461
G1 X128.091 Y104.016 E17.98758
G1 X128.294 Y105.18 E18.06421
G1 X128.795 Y108.354 E18.27262
G1 X128.893 Y109.032 E18.31705
G1 X128.936 Y109.67 E18.35852
G1 X128.775 Y110.789 E18.43184
G1 X128.268 Y113.99 E18.64204
G1 X128.148 Y114.685 E18.68778
G1 X127.991 Y115.304 E18.7292
G1 X127.492 Y116.32 E18.80261
G1 X126.032 Y119.186 E19.01122
G1 X125.694 Y119.829 E19.05834
G1 X125.352 Y120.372 E19.09996
G1 X124.601 Y121.145 E19.16986
G1 X122.249 Y123.497 E19.38559
G1 X121.77 Y123.963 E19.42893
G1 X121.278 Y124.372 E19.47042
G1 X120.27 Y124.905 E19.54438
G1 X117.405 Y126.364 E19.7529
G1 X116.763 Y126.681 E19.79934
G1 X116.171 Y126.918 E19.8407
G1 X115.004 Y127.122 E19.91753
G1 X111.838 Y127.623 E20.12543
G1 X111.151 Y127.722 E20.17044
G1 X110.51 Y127.764 E20.21211
G1 X109.397 Y127.604 E20.28503
G1 X105.528 Y126.985 E20.53916
G1 X105.032 Y126.865 E20.57226
G1 X104.567 Y126.673 E20.60488
G1 X100.997 Y124.86 E20.86457
G1 X100.356 Y124.523 E20.91154
G1 X99.81 Y124.178 E20.95343
G1 X99.039 Y123.429 E21.02314
G1 X96.685 Y121.075 E21.23906
G1 X96.218 Y120.594 E21.28254
G1 X95.808 Y120.099 E21.32423
G1 X95.279 Y119.098 E21.39766
G1 X93.82 Y116.233 E21.60618
G1 X93.503 Y115.591 E21.65262
G1 X93.266 Y114.999 E21.69398
G1 X93.062 Y113.832 E21.77081
G1 X92.56 Y110.658 E21.97923
G1 X92.462 Y109.979 E22.02372
G1 X92.421 Y109.338 E22.06538
G1 X92.577 Y108.242 E22.13718
G1 X93.089 Y105.009 E22.34948
G1 X93.206 Y104.321 E22.39474
G1 X93.331 Y103.827 E22.42779
G1 X93.513 Y103.392 E22.45837
G1 X95.324 Y99.826 E22.71777
G1 X95.662 Y99.183 E22.76488
G1 X96.004 Y98.64 E22.8065
G1 X96.755 Y97.867 E22.8764
G1 F3900 E19.3764
G1 F600 Z0.5
;MESH:tinker.obj(1)
G0 F12000 X110.677 Y124.243 Z0.5
;TYPE:WALL-OUTER
G1 F600 Z0.3
G1 F3900 E22.8764
G1 F1800 X115.231 Y123.522 E23.17544
G1 X119.338 Y121.43 E23.47438
G1 X122.602 Y118.166 E23.77376
G1 X124.694 Y114.059 E24.07269
G1 X125.415 Y109.507 E24.3716
G1 X124.694 Y104.953 E24.67064
G1 X122.602 Y100.846 E24.96957
G1 X119.338 Y97.582 E25.26896
G1 X115.231 Y95.49 E25.56789
G1 X110.678 Y94.769 E25.86686
G1 X106.126 Y95.49 E26.16578
G1 X102.018 Y97.582 E26.46477
G1 X98.754 Y100.846 E26.76415
G1 X96.66 Y104.959 E27.06349
G1 X95.941 Y109.505 E27.36199
G1 X96.662 Y114.059 E27.66103
G1 X98.754 Y118.166 E27.95997
G1 X102.018 Y121.43 E28.25935
G1 X106.125 Y123.522 E28.55828
G1 X110.677 Y124.243 E28.85719
G0 F12000 X110.677 Y123.717
;TYPE:WALL-INNER
G1 F3000 X115.068 Y123.021 E29.14554
G1 X119.028 Y121.004 E29.43377
G1 X122.176 Y117.856 E29.72251
G1 X124.193 Y113.896 E30.01074
G1 X124.889 Y109.507 E30.29896
G1 X124.193 Y105.116 E30.5873
G1 X122.176 Y101.156 E30.87553
G1 X119.028 Y98.008 E31.16427
G1 X115.068 Y95.991 E31.4525
G1 X110.678 Y95.295 E31.74078
G1 X106.289 Y95.991 E32.029
G1 X102.328 Y98.008 E32.31729
G1 X99.18 Y101.156 E32.60603
G1 X97.161 Y105.121 E32.89461
G1 X96.467 Y109.505 E33.18248
G1 X97.163 Y113.896 E33.47082
G1 X99.18 Y117.856 E33.75906
G1 X102.328 Y121.004 E34.0478
G1 X106.288 Y123.021 E34.33603
G1 X110.677 Y123.717 E34.62424
G0 F12000 X110.677 Y123.19
G1 F3000 X114.906 Y122.521 E34.90194
G1 X118.719 Y120.578 E35.17949
G1 X121.75 Y117.547 E35.4575
G1 X123.693 Y113.734 E35.73506
G1 X124.362 Y109.507 E36.01262
G1 X123.693 Y105.278 E36.29032
G1 X121.75 Y101.465 E36.56787
G1 X118.719 Y98.434 E36.84588
G1 X114.906 Y96.491 E37.12344
G1 X110.678 Y95.822 E37.40107
G1 X106.451 Y96.491 E37.67863
G1 X102.637 Y98.434 E37.95625
G1 X99.606 Y101.465 E38.23426
G1 X97.661 Y105.284 E38.51222
G1 X96.994 Y109.505 E38.78938
G1 X97.663 Y113.734 E39.06707
G1 X99.606 Y117.547 E39.34463
G1 X102.637 Y120.578 E39.62264
G1 X106.45 Y122.521 E39.9002
G1 X110.677 Y123.19 E40.17776
G0 F12000 X110.676 Y122.68
;TYPE:SKIN
G1 F3000 X114.747 Y122.035 E40.44509
G1 X118.417 Y120.166 E40.7122
G1 X121.338 Y117.245 E40.98012
G1 X123.207 Y113.575 E41.24724
G1 X123.852 Y109.506 E41.51444
G1 X123.207 Y105.437 E41.78163
G1 X121.339 Y101.767 E42.04872
G1 X118.417 Y98.846 E42.31669
G1 X114.747 Y96.977 E42.5838
G1 X110.678 Y96.332 E42.851
G1 X106.61 Y96.977 E43.11814
G1 X102.939 Y98.846 E43.38531
G1 X100.018 Y101.767 E43.65323
G1 X98.147 Y105.442 E43.92069
G1 X97.504 Y109.504 E44.18742
G1 X98.149 Y113.575 E44.45475
G1 X100.018 Y117.245 E44.72186
G1 X102.939 Y120.166 E44.98978
G1 X106.609 Y122.035 E45.2569
G1 X110.676 Y122.68 E45.52397
G1 F3900 E42.02397
G0 F12000 X100.444 Y116.934
M104 S230
G1 F3900 E45.52397
G1 F3000 X103.249 Y119.739 E45.78125
G1 X103.883 Y120.061 E45.82737
G1 X100.121 Y116.299 E46.17243
G1 X99.357 Y114.8 E46.28155
G1 X105.382 Y120.825 E46.83417
G1 X106.771 Y121.533 E46.93529
G1 X106.835 Y121.543 E46.93949
G1 X98.639 Y113.347 E47.69124
G1 X98.5 Y112.473 E47.74864
G1 X107.709 Y121.681 E48.59326
G1 X108.584 Y121.821 E48.65073
G1 X98.362 Y111.599 E49.58832
G1 X98.223 Y110.725 E49.64571
G1 X109.458 Y121.959 E50.67616
G1 X110.331 Y122.098 E50.7335
G1 X98.084 Y109.851 E51.85682
G1 X98.029 Y109.503 E51.87967
G1 X98.089 Y109.12 E51.90481
G1 X111.061 Y122.091 E53.09458
G1 X111.696 Y121.991 E53.13628
G1 X98.19 Y108.485 E54.37507
G1 X98.291 Y107.851 E54.41671
G1 X112.33 Y121.89 E55.7044
G1 X112.965 Y121.789 E55.7461
G1 X98.391 Y107.216 E57.08281
G1 X98.492 Y106.581 E57.12451
G1 X113.599 Y121.688 E58.51016
G1 X114.234 Y121.588 E58.55185
G1 X98.592 Y105.946 E59.98656
G1 X98.647 Y105.602 E60.00916
G1 X98.76 Y105.379 E60.02537
G1 X114.803 Y121.421 E61.49682
G1 X115.29 Y121.173 E61.53227
G1 X99.009 Y104.892 E63.02559
G1 X99.257 Y104.405 E63.06104
G1 X115.777 Y120.925 E64.57629
G1 X116.264 Y120.676 E64.61176
G1 X99.505 Y103.917 E66.14893
G1 X99.753 Y103.43 E66.18438
G1 X116.751 Y120.428 E67.74347
G1 X117.239 Y120.18 E67.77897
G1 X100.001 Y102.943 E69.36003
G1 X100.25 Y102.456 E69.3955
G1 X117.726 Y119.932 E70.99844
G1 X118.107 Y119.739 E71.02614
G1 X118.187 Y119.658 E71.03352
G1 X100.524 Y101.995 E72.65361
G1 X100.892 Y101.627 E72.68736
G1 X118.555 Y119.291 E74.30749
G1 X118.923 Y118.923 E74.34125
G1 X101.259 Y101.259 E75.96142
G1 X101.627 Y100.892 E75.99513
G1 X119.291 Y118.555 E77.61526
G1 X119.658 Y118.187 E77.64897
G1 X101.995 Y100.524 E79.26906
G1 X102.362 Y100.156 E79.30277
G1 X120.026 Y117.82 E80.92294
G1 X120.394 Y117.452 E80.9567
G1 X102.73 Y99.789 E82.57683
G1 X103.098 Y99.421 E82.61058
G1 X120.761 Y117.084 E84.23067
G1 X120.911 Y116.934 E84.24443
G1 X121.058 Y116.646 E84.2654
G1 X103.537 Y99.125 E85.87246
G1 X104.024 Y98.876 E85.90794
G1 X121.306 Y116.159 E87.49312
G1 X121.555 Y115.672 E87.5286
G1 X104.511 Y98.628 E89.09191
G1 X104.999 Y98.381 E89.12738
G1 X121.803 Y115.184 E90.66863
G1 X122.051 Y114.697 E90.70408
G1 X105.486 Y98.132 E92.22345
G1 X105.974 Y97.884 E92.25895
G1 X122.299 Y114.209 E93.75632
G1 X122.547 Y113.722 E93.79176
G1 X106.461 Y97.636 E95.2672
G1 X106.772 Y97.478 E95.28983
G1 X107.002 Y97.442 E95.30492
G1 X122.741 Y113.181 E96.74854
G1 X122.842 Y112.547 E96.79018
G1 X107.636 Y97.341 E98.1849
G1 X108.271 Y97.24 E98.2266
G1 X122.943 Y111.913 E99.57239
G1 X123.044 Y111.278 E99.6141
G1 X108.905 Y97.139 E100.91095
G1 X109.54 Y97.039 E100.95265
G1 X123.145 Y110.643 E102.20048
G1 X123.245 Y110.008 E102.24217
G1 X110.175 Y96.937 E103.44102
G1 X110.677 Y96.858 E103.47398
G1 X110.859 Y96.887 E103.48593
G1 X123.297 Y109.325 E104.62677
G1 X123.158 Y108.45 E104.68423
G1 X111.734 Y97.026 E105.73207
G1 X112.608 Y97.164 E105.78945
G1 X123.019 Y107.576 E106.74442
G1 X122.88 Y106.701 E106.80188
G1 X113.482 Y97.303 E107.66388
G1 X114.356 Y97.442 E107.72128
G1 X122.741 Y105.827 E108.49037
G1 X122.704 Y105.6 E108.50529
G1 X122.141 Y104.491 E108.58595
G1 X115.692 Y98.043 E109.17742
G1 X118.106 Y99.272 E109.35311
G1 X120.912 Y102.076 E109.61039
G1 F3900 E106.11039
G0 F12000 X121.379 Y102.995
G1 F3900 E109.61039
G1 F3000 X117.19 Y98.806 E109.99461
G1 F3900 E106.49461
G1 F600 Z0.5
;MESH:NONMESH
G0 F12000 X117.19 Y98.806 Z0.5
G0 X96.755 Y97.867
;TIME_ELAPSED:40.200120
;LAYER:1
M106 S90.1
G0 X96.755 Y97.867 Z0.65
;TYPE:SKIRT
G1 F600 Z0.45
G1 F3900 E109.99461
G1 F3000 X99.107 Y95.515 E110.07759
G1 X99.586 Y95.049 E110.09426
G1 X100.078 Y94.64 E110.11022
G1 X101.086 Y94.107 E110.13866
G1 X103.951 Y92.648 E110.21886
G1 X104.593 Y92.331 E110.23672
G1 X105.185 Y92.094 E110.25263
G1 X106.352 Y91.89 E110.28218
G1 X109.526 Y91.388 E110.36234
G1 X110.205 Y91.29 E110.37945
G1 X110.846 Y91.249 E110.39548
G1 X111.961 Y91.409 E110.42358
G1 X115.162 Y91.916 E110.50442
G1 X115.857 Y92.036 E110.52201
G1 X116.476 Y92.193 E110.53794
G1 X117.492 Y92.692 E110.56618
G1 X120.358 Y94.152 E110.64641
G1 X121.001 Y94.49 E110.66453
G1 X121.544 Y94.832 E110.68054
G1 X122.317 Y95.583 E110.70743
G1 X124.669 Y97.935 E110.7904
G1 X125.135 Y98.414 E110.80707
G1 X125.545 Y98.906 E110.82305
G1 X126.076 Y99.913 E110.85144
G1 X127.523 Y102.751 E110.93091
G1 X127.854 Y103.422 E110.94957
G1 X128.091 Y104.016 E110.96553
G1 X128.294 Y105.18 E110.995
G1 X128.795 Y108.354 E111.07516
G1 X128.893 Y109.032 E111.09225
G1 X128.936 Y109.67 E111.1082
G1 X128.775 Y110.789 E111.1364
G1 X128.268 Y113.99 E111.21724
G1 X128.148 Y114.685 E111.23484
G1 X127.991 Y115.304 E111.25077
G1 X127.492 Y116.32 E111.279
G1 X126.032 Y119.186 E111.35924
G1 X125.694 Y119.829 E111.37736
G1 X125.352 Y120.372 E111.39337
G1 X124.601 Y121.145 E111.42025
G1 X122.249 Y123.497 E111.50322
G1 X121.77 Y123.963 E111.51989
G1 X121.278 Y124.372 E111.53585
G1 X120.27 Y124.905 E111.5643
G1 X117.405 Y126.364 E111.6445
G1 X116.763 Y126.681 E111.66236
G1 X116.171 Y126.918 E111.67827
G1 X115.004 Y127.122 E111.70782
G1 X111.838 Y127.623 E111.78778
G1 X111.151 Y127.722 E111.80509
G1 X110.51 Y127.764 E111.82111
G1 X109.397 Y127.604 E111.84916
G1 X105.528 Y126.985 E111.9469
G1 X105.032 Y126.865 E111.95963
G1 X104.567 Y126.673 E111.97218
G1 X100.997 Y124.86 E112.07206
G1 X100.356 Y124.523 E112.09013
G1 X99.81 Y124.178 E112.10624
G1 X99.039 Y123.429 E112.13305
G1 X96.685 Y121.075 E112.2161
G1 X96.218 Y120.594 E112.23282
G1 X95.808 Y120.099 E112.24885
G1 X95.279 Y119.098 E112.2771
G1 X93.82 Y116.233 E112.3573
G1 X93.503 Y115.591 E112.37516
