;FLAVOR:Marlin
;TIME:36568
;Filament used: 40.3281m
;Layer height: 0.15
;MINX:10.7
;MINY:28.2
;MINZ:0.3
;MAXX:209.3
;MAXY:191.8
;MAXZ:4.95
;TARGET_MACHINE.NAME:Tyro
;Generated with Cura_SteamEngine 5.6.0
M140 S100
M105
M190 S100
M104 S250
M105
M109 S250
M82 ;absolute extrusion mode
G28;
M400
G29 V4 T;
M400
G1 X-8 Y100 Z0.8 F3000;
G92 E0;
G1 E30 F200;
G92 E0;
G1 E-3;
G1 Z1 F3000;
G1 X10 Y10 Z0.3 F3000;
G1 X0 Y30 Z1 F10000;
G1 X10 Y10 Z0.3 F10000;
G1 Z5 F3000
G92 E0
G92 E0
G1 F3900 E-3.5
;LAYER_COUNT:32
;LAYER:0
M107
G1 F600 Z0.5
G0 F12000 X17.476 Y29.036 Z0.5
;TYPE:SKIRT
G1 F600 Z0.3
G1 F3900 E0
G1 F3000 X18.05 Y28.683 E0.0437
G1 X18.671 Y28.425 E0.08732
G1 X19.318 Y28.268 E0.1305
G1 X20.019 Y28.2 E0.17618
G1 X29.352 Y28.2 E0.78149
G1 X30.098 Y28.21 E0.82988
G1 X30.896 Y28.243 E0.88168
G1 X33.676 Y28.322 E1.06205
G1 X36.331 Y28.322 E1.23425
G1 X39.082 Y28.244 E1.41274
G1 X40.204 Y28.202 E1.48557
G1 X49.352 Y28.2 E2.07888
G1 X50.098 Y28.21 E2.12727
G1 X50.896 Y28.243 E2.17907
G1 X53.676 Y28.322 E2.35944
G1 X56.331 Y28.322 E2.53164
G1 X59.083 Y28.244 E2.7102
G1 X60.204 Y28.202 E2.78295
G1 X69.352 Y28.2 E3.37627
G1 X70.098 Y28.21 E3.42466
G1 X70.896 Y28.243 E3.47646
G1 X73.676 Y28.322 E3.65683
G1 X76.331 Y28.322 E3.82903
G1 X79.083 Y28.244 E4.00759
G1 X80.204 Y28.202 E4.08034
G1 X89.352 Y28.2 E4.67366
G1 X90.098 Y28.21 E4.72205
G1 X90.896 Y28.243 E4.77385
G1 X93.676 Y28.322 E4.95422
G1 X96.331 Y28.322 E5.12642
G1 X99.083 Y28.244 E5.30498
G1 X100.204 Y28.202 E5.37773
G1 X119.352 Y28.2 E6.61962
G1 X120.098 Y28.21 E6.66801
G1 X120.896 Y28.243 E6.71981
G1 X123.676 Y28.322 E6.90018
G1 X126.331 Y28.322 E7.07238
G1 X129.083 Y28.244 E7.25094
G1 X130.204 Y28.202 E7.3237
G1 X139.352 Y28.2 E7.91701
G1 X140.098 Y28.21 E7.9654
G1 X140.896 Y28.243 E8.0172
G1 X143.676 Y28.322 E8.19757
G1 X146.331 Y28.322 E8.36977
G1 X149.083 Y28.244 E8.54833
G1 X150.204 Y28.202 E8.62108
G1 X159.352 Y28.2 E9.2144
G1 X160.098 Y28.21 E9.26279
G1 X160.896 Y28.243 E9.31459
G1 X163.676 Y28.322 E9.49496
G1 X166.331 Y28.322 E9.66716
G1 X169.083 Y28.244 E9.84572
G1 X170.204 Y28.202 E9.91847
G1 X179.352 Y28.2 E10.51179
G1 X180.098 Y28.21 E10.56018
G1 X180.896 Y28.243 E10.61198
G1 X183.676 Y28.322 E10.79235
G1 X186.331 Y28.322 E10.96455
G1 X189.083 Y28.244 E11.14311
G1 X190.204 Y28.202 E11.21586
G1 X199.354 Y28.2 E11.80931
G1 X200.14 Y28.214 E11.86029
G1 X200.727 Y28.276 E11.89858
G1 X201.422 Y28.452 E11.94507
G1 X202.07 Y28.745 E11.9912
G1 X202.565 Y29.065 E12.02943
G1 X203.076 Y29.511 E12.07342
G1 X204.05 Y30.531 E12.16489
G1 X205.962 Y32.475 E12.34174
G1 X207.998 Y34.434 E12.52498
G1 X208.467 Y34.979 E12.57162
G1 X208.815 Y35.545 E12.61471
G1 X209.048 Y36.09 E12.65315
G1 X209.232 Y36.82 E12.70198
G1 X209.3 Y37.52 E12.74759
G1 X209.3 Y181.834 E22.1074
G1 X209.288 Y182.597 E22.1569
G1 X209.21 Y183.311 E22.20348
G1 X209.031 Y183.959 E22.24708
G1 X208.756 Y184.569 E22.29048
G1 X208.436 Y185.064 E22.32871
G1 X207.956 Y185.611 E22.37591
G1 X206.945 Y186.574 E22.46646
G1 X205.008 Y188.479 E22.64267
G1 X203.065 Y190.499 E22.82445
G1 X202.524 Y190.964 E22.87072
G1 X201.95 Y191.317 E22.91442
G1 X201.329 Y191.575 E22.95803
G1 X200.682 Y191.732 E23.00122
G1 X199.981 Y191.8 E23.04689
G1 X190.648 Y191.8 E23.65221
G1 X189.903 Y191.79 E23.70053
G1 X189.104 Y191.757 E23.75239
G1 X186.324 Y191.678 E23.93277
G1 X183.67 Y191.678 E24.1049
G1 X180.917 Y191.756 E24.28353
G1 X179.796 Y191.798 E24.35628
G1 X170.648 Y191.8 E24.9496
G1 X169.903 Y191.79 E24.99792
G1 X169.104 Y191.757 E25.04978
G1 X166.324 Y191.678 E25.23016
G1 X163.67 Y191.678 E25.40229
G1 X160.917 Y191.756 E25.58091
G1 X159.796 Y191.798 E25.65367
G1 X150.648 Y191.8 E26.24698
G1 X149.903 Y191.79 E26.29531
G1 X149.104 Y191.757 E26.34717
G1 X146.324 Y191.678 E26.52755
G1 X143.67 Y191.678 E26.69968
G1 X140.917 Y191.756 E26.8783
G1 X139.796 Y191.798 E26.95106
G1 X130.648 Y191.8 E27.54437
G1 X129.903 Y191.79 E27.5927
G1 X129.104 Y191.757 E27.64456
G1 X126.324 Y191.678 E27.82494
G1 X123.67 Y191.678 E27.99707
G1 X120.917 Y191.756 E28.17569
G1 X119.796 Y191.798 E28.24845
G1 X100.648 Y191.8 E29.49034
G1 X99.903 Y191.79 E29.53866
G1 X99.104 Y191.757 E29.59052
G1 X96.324 Y191.678 E29.7709
G1 X93.67 Y191.678 E29.94303
G1 X90.917 Y191.756 E30.12166
G1 X89.796 Y191.798 E30.19441
G1 X80.648 Y191.8 E30.78773
G1 X79.903 Y191.79 E30.83605
G1 X79.104 Y191.757 E30.88791
G1 X76.324 Y191.678 E31.06829
G1 X73.67 Y191.678 E31.24042
G1 X70.917 Y191.756 E31.41904
G1 X69.796 Y191.798 E31.4918
G1 X60.648 Y191.8 E32.08511
G1 X59.903 Y191.79 E32.13344
G1 X59.104 Y191.757 E32.1853
G1 X56.324 Y191.678 E32.36568
G1 X53.67 Y191.678 E32.53781
G1 X50.917 Y191.756 E32.71643
G1 X49.796 Y191.798 E32.78919
G1 X40.648 Y191.8 E33.3825
G1 X39.903 Y191.79 E33.43083
G1 X39.104 Y191.757 E33.48269
G1 X36.324 Y191.678 E33.66307
G1 X33.67 Y191.678 E33.8352
G1 X30.917 Y191.756 E34.01382
G1 X29.796 Y191.798 E34.08658
G1 X20.646 Y191.8 E34.68002
G1 X19.902 Y191.788 E34.72828
G1 X19.189 Y191.709 E34.77481
G1 X18.544 Y191.533 E34.81817
G1 X18.008 Y191.296 E34.85618
G1 X17.433 Y190.941 E34.90001
G1 X16.894 Y190.458 E34.94695
G1 X15.94 Y189.459 E35.03654
G1 X14.021 Y187.508 E35.21403
G1 X12.004 Y185.568 E35.39553
G1 X11.536 Y185.024 E35.44208
G1 X11.183 Y184.45 E35.48578
G1 X10.925 Y183.829 E35.5294
G1 X10.768 Y183.182 E35.57258
G1 X10.7 Y182.481 E35.61825
G1 X10.7 Y38.146 E44.97943
G1 X10.714 Y37.36 E45.03041
G1 X10.776 Y36.773 E45.0687
G1 X10.952 Y36.078 E45.11519
G1 X11.245 Y35.43 E45.16132
G1 X11.565 Y34.935 E45.19955
G1 X12.044 Y34.389 E45.24666
G1 X13.055 Y33.426 E45.33721
G1 X14.992 Y31.521 E45.51342
G1 X16.932 Y29.504 E45.69492
G1 X17.476 Y29.036 E45.74146
G0 F12000 X18.254 Y29.161
G1 F3000 X18.798 Y28.929 E45.77982
G1 X19.37 Y28.785 E45.81808
G1 X20.019 Y28.72 E45.86038
G1 X29.345 Y28.72 E46.46524
G1 X30.077 Y28.73 E46.51272
G1 X30.875 Y28.763 E46.56452
G1 X33.661 Y28.842 E46.74528
G1 X36.346 Y28.842 E46.91943
G1 X39.102 Y28.764 E47.09824
G1 X40.204 Y28.722 E47.16977
G1 X49.345 Y28.72 E47.76263
G1 X50.077 Y28.73 E47.81011
G1 X50.875 Y28.763 E47.86191
G1 X53.661 Y28.842 E48.04267
G1 X56.346 Y28.842 E48.21682
G1 X59.103 Y28.764 E48.3957
G1 X60.204 Y28.722 E48.46716
G1 X69.345 Y28.72 E49.06002
G1 X70.077 Y28.73 E49.1075
G1 X70.875 Y28.763 E49.1593
G1 X73.661 Y28.842 E49.34006
G1 X76.346 Y28.842 E49.51421
G1 X79.103 Y28.764 E49.69309
G1 X80.204 Y28.722 E49.76455
G1 X89.345 Y28.72 E50.35741
G1 X90.077 Y28.73 E50.40489
G1 X90.875 Y28.763 E50.45669
G1 X93.661 Y28.842 E50.63745
G1 X96.346 Y28.842 E50.8116
G1 X99.103 Y28.764 E50.99048
G1 X100.204 Y28.722 E51.06194
G1 X119.345 Y28.72 E52.30337
G1 X120.077 Y28.73 E52.35085
G1 X120.875 Y28.763 E52.40265
G1 X123.661 Y28.842 E52.58342
G1 X126.346 Y28.842 E52.75756
G1 X129.103 Y28.764 E52.93644
G1 X130.204 Y28.722 E53.0079
G1 X139.345 Y28.72 E53.60076
G1 X140.077 Y28.73 E53.64824
G1 X140.875 Y28.763 E53.70004
G1 X143.661 Y28.842 E53.88081
G1 X146.346 Y28.842 E54.05495
G1 X149.103 Y28.764 E54.23383
G1 X150.204 Y28.722 E54.30529
G1 X159.345 Y28.72 E54.89815
G1 X160.077 Y28.73 E54.94563
G1 X160.875 Y28.763 E54.99743
G1 X163.661 Y28.842 E55.1782
G1 X166.346 Y28.842 E55.35234
G1 X169.103 Y28.764 E55.53122
G1 X170.204 Y28.722 E55.60268
G1 X179.345 Y28.72 E56.19554
G1 X180.077 Y28.73 E56.24302
G1 X180.875 Y28.763 E56.29482
G1 X183.661 Y28.842 E56.47559
G1 X186.346 Y28.842 E56.64973
G1 X189.103 Y28.764 E56.82861
G1 X190.204 Y28.722 E56.90007
G1 X199.346 Y28.72 E57.493
G1 X200.091 Y28.732 E57.54132
G1 X200.599 Y28.78 E57.57442
G1 X201.251 Y28.945 E57.61804
G1 X201.792 Y29.185 E57.65642
G1 X202.223 Y29.457 E57.68948
G1 X202.734 Y29.903 E57.73347
G1 X203.679 Y30.896 E57.82237
G1 X205.591 Y32.84 E57.99922
G1 X207.638 Y34.809 E58.18343
G1 X208.026 Y35.255 E58.22177
G1 X208.339 Y35.755 E58.26003
G1 X208.545 Y36.222 E58.29313
G1 X208.715 Y36.872 E58.33671
G1 X208.78 Y37.52 E58.37895
G1 X208.78 Y181.826 E67.73824
G1 X208.768 Y182.589 E67.78773
G1 X208.707 Y183.177 E67.82607
G1 X208.555 Y183.749 E67.86446
G1 X208.316 Y184.291 E67.90288
G1 X208.044 Y184.722 E67.93593
G1 X207.597 Y185.234 E67.98001
G1 X206.586 Y186.197 E68.07057
G1 X204.643 Y188.108 E68.24732
G1 X202.722 Y190.108 E68.42718
G1 X202.247 Y190.524 E68.46813
G1 X201.746 Y190.839 E68.50652
G1 X201.202 Y191.071 E68.54487
G1 X200.63 Y191.215 E68.58313
G1 X199.981 Y191.28 E68.62543
G1 X190.655 Y191.28 E69.23029
G1 X189.924 Y191.27 E69.27771
G1 X189.125 Y191.237 E69.32957
G1 X186.339 Y191.158 E69.51034
G1 X183.655 Y191.158 E69.68441
G1 X180.897 Y191.236 E69.86336
G1 X179.796 Y191.278 E69.93482
G1 X170.655 Y191.28 E70.52768
G1 X169.924 Y191.27 E70.5751
G1 X169.125 Y191.237 E70.62696
G1 X166.339 Y191.158 E70.80773
G1 X163.655 Y191.158 E70.9818
G1 X160.897 Y191.236 E71.16075
G1 X159.796 Y191.278 E71.23221
G1 X150.655 Y191.28 E71.82507
G1 X149.924 Y191.27 E71.87249
G1 X149.125 Y191.237 E71.92435
G1 X146.339 Y191.158 E72.10512
G1 X143.655 Y191.158 E72.27919
G1 X140.897 Y191.236 E72.45814
G1 X139.796 Y191.278 E72.5296
G1 X130.655 Y191.28 E73.12246
G1 X129.924 Y191.27 E73.16988
G1 X129.125 Y191.237 E73.22174
G1 X126.339 Y191.158 E73.40251
G1 X123.655 Y191.158 E73.57658
G1 X120.897 Y191.236 E73.75553
G1 X119.796 Y191.278 E73.82699
G1 X100.655 Y191.28 E75.06842
G1 X99.924 Y191.27 E75.11584
G1 X99.125 Y191.237 E75.1677
G1 X96.339 Y191.158 E75.34847
G1 X93.655 Y191.158 E75.52255
G1 X90.897 Y191.236 E75.70149
G1 X89.796 Y191.278 E75.77295
G1 X80.655 Y191.28 E76.36581
G1 X79.924 Y191.27 E76.41323
G1 X79.125 Y191.237 E76.46509
G1 X76.339 Y191.158 E76.64586
G1 X73.655 Y191.158 E76.81994
G1 X70.897 Y191.236 E76.99888
G1 X69.796 Y191.278 E77.07034
G1 X60.655 Y191.28 E77.6632
G1 X59.924 Y191.27 E77.71062
G1 X59.125 Y191.237 E77.76248
G1 X56.339 Y191.158 E77.94325
G1 X53.655 Y191.158 E78.11733
G1 X50.897 Y191.236 E78.29627
G1 X49.796 Y191.278 E78.36773
G1 X40.655 Y191.28 E78.96059
G1 X39.924 Y191.27 E79.00801
G1 X39.125 Y191.237 E79.05987
G1 X36.339 Y191.158 E79.24064
G1 X33.655 Y191.158 E79.41472
G1 X30.897 Y191.236 E79.59366
G1 X29.796 Y191.278 E79.66512
G1 X20.654 Y191.28 E80.25805
G1 X19.91 Y191.268 E80.30631
G1 X19.322 Y191.206 E80.34466
G1 X18.75 Y191.055 E80.38302
G1 X18.281 Y190.853 E80.41614
G1 X17.743 Y190.521 E80.45715
G1 X17.27 Y190.099 E80.49826
G1 X16.311 Y189.094 E80.58835
G1 X14.392 Y187.143 E80.76584
G1 X12.364 Y185.193 E80.94831
G1 X11.976 Y184.747 E80.98665
G1 X11.661 Y184.246 E81.02504
G1 X11.429 Y183.702 E81.06339
G1 X11.285 Y183.13 E81.10165
G1 X11.22 Y182.481 E81.14395
G1 X11.22 Y38.154 E90.50461
G1 X11.232 Y37.409 E90.55293
G1 X11.28 Y36.901 E90.58602
G1 X11.445 Y36.249 E90.62964
G1 X11.685 Y35.708 E90.66803
G1 X11.957 Y35.277 E90.70108
G1 X12.403 Y34.766 E90.74508
G1 X13.414 Y33.803 E90.83563
G1 X15.357 Y31.892 E91.01239
G1 X17.307 Y29.864 E91.19486
G1 X17.753 Y29.476 E91.2332
G1 X18.254 Y29.161 E91.27158
G0 F12000 X18.463 Y29.637
G1 F3000 X18.931 Y29.432 E91.30472
G1 X19.424 Y29.302 E91.33778
G1 X20.019 Y29.24 E91.37658
G1 X29.338 Y29.24 E91.98099
G1 X30.056 Y29.25 E92.02756
G1 X30.854 Y29.283 E92.07936
G1 X33.646 Y29.362 E92.26051
G1 X36.361 Y29.362 E92.4366
G1 X39.122 Y29.284 E92.61574
G1 X40.204 Y29.242 E92.68597
G1 X49.338 Y29.24 E93.27838
G1 X50.056 Y29.25 E93.32495
G1 X50.854 Y29.283 E93.37675
G1 X53.646 Y29.362 E93.55791
G1 X56.361 Y29.362 E93.73399
G1 X59.123 Y29.284 E93.9132
G1 X60.204 Y29.242 E93.98336
G1 X69.338 Y29.24 E94.57577
G1 X70.056 Y29.25 E94.62234
G1 X70.854 Y29.283 E94.67414
G1 X73.646 Y29.362 E94.8553
G1 X76.361 Y29.362 E95.03138
G1 X79.123 Y29.284 E95.21059
G1 X80.204 Y29.242 E95.28075
G1 X89.338 Y29.24 E95.87316
G1 X90.056 Y29.25 E95.91973
G1 X90.854 Y29.283 E95.97153
G1 X93.646 Y29.362 E96.15269
G1 X96.361 Y29.362 E96.32877
G1 X99.123 Y29.284 E96.50798
G1 X100.204 Y29.242 E96.57814
G1 X119.338 Y29.24 E97.81912
G1 X120.056 Y29.25 E97.8657
G1 X120.854 Y29.283 E97.9175
G1 X123.646 Y29.362 E98.09865
G1 X126.361 Y29.362 E98.27474
G1 X129.123 Y29.284 E98.45394
G1 X130.204 Y29.242 E98.52411
G1 X139.338 Y29.24 E99.11651
G1 X140.056 Y29.25 E99.16309
G1 X140.854 Y29.283 E99.21489
G1 X143.646 Y29.362 E99.39604
G1 X146.361 Y29.362 E99.57213
G1 X149.123 Y29.284 E99.75134
G1 X150.204 Y29.242 E99.8215
G1 X159.338 Y29.24 E100.41391
G1 X160.056 Y29.25 E100.46048
G1 X160.854 Y29.283 E100.51228
G1 X163.646 Y29.362 E100.69343
G1 X166.361 Y29.362 E100.86952
G1 X169.123 Y29.284 E101.04873
G1 X170.204 Y29.242 E101.11889
G1 X179.338 Y29.24 E101.7113
G1 X180.056 Y29.25 E101.75787
G1 X180.854 Y29.283 E101.80967
G1 X183.646 Y29.362 E101.99082
G1 X186.361 Y29.362 E102.16691
G1 X189.123 Y29.284 E102.34612
G1 X190.204 Y29.242 E102.41628
G1 X199.339 Y29.24 E103.00875
G1 X200.042 Y29.25 E103.05435
G1 X200.55 Y29.298 E103.08745
G1 X201.045 Y29.423 E103.12056
G1 X201.514 Y29.625 E103.15368
G1 X201.945 Y29.897 E103.18673
G1 X202.357 Y30.262 E103.22243
G1 X203.308 Y31.261 E103.31189
G1 X205.22 Y33.205 E103.48873
G1 X207.249 Y35.154 E103.67121
G1 X207.588 Y35.536 E103.70433
G1 X207.863 Y35.965 E103.73738
G1 X208.069 Y36.432 E103.77048
G1 X208.198 Y36.926 E103.8036
G1 X208.26 Y37.52 E103.84233
G1 X208.26 Y181.819 E113.20117
G1 X208.25 Y182.541 E113.248
G1 X208.203 Y183.049 E113.28109
G1 X208.077 Y183.544 E113.31422
G1 X207.876 Y184.013 E113.34731
G1 X207.604 Y184.444 E113.38037
G1 X207.238 Y184.857 E113.41616
G1 X206.227 Y185.82 E113.50671
G1 X204.278 Y187.737 E113.68402
G1 X202.347 Y189.748 E113.86484
G1 X201.966 Y190.087 E113.89792
G1 X201.537 Y190.363 E113.931
G1 X201.069 Y190.568 E113.96414
G1 X200.576 Y190.698 E113.99721
G1 X199.981 Y190.76 E114.036
G1 X190.662 Y190.76 E114.64041
G1 X189.945 Y190.75 E114.68692
G1 X189.146 Y190.717 E114.73878
G1 X186.354 Y190.638 E114.91994
G1 X183.64 Y190.638 E115.09596
G1 X180.877 Y190.716 E115.27523
G1 X179.796 Y190.758 E115.34539
G1 X170.662 Y190.76 E115.9378
G1 X169.945 Y190.75 E115.98431
G1 X169.146 Y190.717 E116.03617
G1 X166.354 Y190.638 E116.21733
G1 X163.64 Y190.638 E116.39335
G1 X160.877 Y190.716 E116.57262
G1 X159.796 Y190.758 E116.64278
G1 X150.662 Y190.76 E117.23519
G1 X149.945 Y190.75 E117.2817
G1 X149.146 Y190.717 E117.33356
G1 X146.354 Y190.638 E117.51472
G1 X143.64 Y190.638 E117.69074
G1 X140.877 Y190.716 E117.87001
G1 X139.796 Y190.758 E117.94018
G1 X130.662 Y190.76 E118.53258
G1 X129.945 Y190.75 E118.57909
G1 X129.146 Y190.717 E118.63095
G1 X126.354 Y190.638 E118.81211
G1 X123.64 Y190.638 E118.98813
G1 X120.877 Y190.716 E119.1674
G1 X119.796 Y190.758 E119.23757
G1 X100.662 Y190.76 E120.47854
G1 X99.945 Y190.75 E120.52505
G1 X99.146 Y190.717 E120.57692
G1 X96.354 Y190.638 E120.75807
G1 X93.64 Y190.638 E120.93409
G1 X90.877 Y190.716 E121.11337
G1 X89.796 Y190.758 E121.18353
G1 X80.662 Y190.76 E121.77594
G1 X79.945 Y190.75 E121.82244
G1 X79.146 Y190.717 E121.87431
G1 X76.354 Y190.638 E122.05546
G1 X73.64 Y190.638 E122.23148
G1 X70.877 Y190.716 E122.41076
G1 X69.796 Y190.758 E122.48092
G1 X60.662 Y190.76 E123.07333
G1 X59.945 Y190.75 E123.11983
G1 X59.146 Y190.717 E123.1717
G1 X56.354 Y190.638 E123.35285
G1 X53.64 Y190.638 E123.52888
G1 X50.877 Y190.716 E123.70815
G1 X49.796 Y190.758 E123.77831
G1 X40.662 Y190.76 E124.37072
G1 X39.945 Y190.75 E124.41722
G1 X39.146 Y190.717 E124.46909
G1 X36.354 Y190.638 E124.65024
G1 X33.64 Y190.638 E124.82627
G1 X30.877 Y190.716 E125.00554
G1 X29.796 Y190.758 E125.0757
G1 X20.661 Y190.76 E125.66817
G1 X19.959 Y190.75 E125.71371
G1 X19.45 Y190.702 E125.74687
G1 X18.956 Y190.577 E125.77992
G1 X18.487 Y190.375 E125.81303
G1 X18.055 Y190.103 E125.84614
G1 X17.646 Y189.74 E125.88161
G1 X16.682 Y188.729 E125.97221
G1 X14.763 Y186.778 E126.1497
G1 X12.752 Y184.847 E126.33052
G1 X12.413 Y184.466 E126.3636
G1 X12.137 Y184.037 E126.39668
G1 X11.932 Y183.569 E126.42982
G1 X11.802 Y183.076 E126.46289
G1 X11.74 Y182.481 E126.50169
G1 X11.74 Y38.161 E135.86189
G1 X11.75 Y37.458 E135.90749
G1 X11.798 Y36.95 E135.94058
G1 X11.923 Y36.455 E135.97369
G1 X12.125 Y35.986 E136.00681
G1 X12.397 Y35.555 E136.03987
G1 X12.762 Y35.143 E136.07557
G1 X13.773 Y34.18 E136.16612
G1 X15.722 Y32.263 E136.34343
G1 X17.653 Y30.252 E136.52425
G1 X18.034 Y29.913 E136.55732
G1 X18.463 Y29.637 E136.59041
